!!!!SEGMENT: pl-cz--iii-270--002_gotschalk-filip-missa-pastoriria-in-c-gloria.krn
!!!id: 18xx:121
!!!COM: Gotschalk, Filip
!!!OTL: Missa Pastoriria in C - Gloria
!!!PDT:
!!!SMS-siglum: PL-CZ
!!!SMS-shelfmark: III-270
!!!NIFC-rismID:
!!!URL-scan: http://repozytorium.nifc.pl/skany/pl-cz-nut--iii-270
!!!ONB-nifc:
!!!ENC: Anna Matuszewska
!!!END: 2020-03-28
**kern	**fb	**dynam	**kern	**text	**kern	**text	**kern	**text	**kern	**dynam	**kern	**dynam	**kern	**dynam	**kern	**dynam	**kern	**dynam	**kern	**dynam
*part10	*	*part10	*part9	*part9	*part8	*part8	*part7	*part7	*part6	*part6	*part5	*part5	*part4	*part4	*part3	*part3	*staff2	*	*staff1	*
*I"Organo	*	*	*I"Basso	*	*I"Alto	*	*I"Canto	*	*I"Violino Secondo	*	*I"Violino Primo	*	*I"Cornu Secondo in C	*	*I"Cornu Primo in C	*	*I"Clarinetto Secondo	*	*I"Clarinetto Primo	*
*I'Org	*	*	*I'B	*	*I'A	*	*I'C	*	*I'Vln II	*	*I'Vln I	*	*I'Cor II	*	*I'Cor I	*	*I'Cl II	*	*I'Cl I	*
*clefF4	*	*	*clefF4	*	*clefC3	*	*clefC1	*	*clefG2	*	*clefG2	*	*clefG2	*	*clefG2	*	*clefG2	*	*clefG2	*
*k[]	*	*	*k[]	*	*k[]	*	*k[]	*	*k[]	*	*k[]	*	*k[]	*	*k[]	*	*k[]	*	*k[]	*
*M4/4	*	*	*M4/4	*	*M4/4	*	*M4/4	*	*M4/4	*	*M4/4	*	*M4/4	*	*M4/4	*	*M4/4	*	*M4/4	*
*met(c)	*	*	*met(c)	*	*met(c)	*	*met(c)	*	*met(c)	*	*met(c)	*	*met(c)	*	*met(c)	*	*met(c)	*	*met(c)	*
=1	=1	=1	=1	=1	=1	=1	=1	=1	=1	=1	=1	=1	=1	=1	=1	=1	=1	=1	=1	=1
!LO:TX:a:B:t=Allegro	!	!	!LO:TX:a:B:t=Allegro	!	!LO:TX:a:B:t=Allegro	!	!LO:TX:a:B:t=Allegro	!	!LO:TX:a:B:t=Allegro	!	!LO:TX:a:B:t=Allegro	!	!	!	!LO:TX:a:B:t=Allegro	!	!	!	!LO:TX:a:B:t=Allegro	!
8cL\	.	.	4C	Et	4e	Et	4cc	Et	8ccL\	.	8ccL\	.	8ccL\	.	8ccL\	.	8ccL\	.	8ccL	.
8C/	.	.	.	.	.	.	.	.	8c/	.	8c/	.	8c/	.	8c/	.	8c/	.	8cc	.
8C/	.	.	4C	in	4g	in	4cc	in	8c/	.	8c/	.	8c/	.	8c/	.	8c/	.	8cc	.
8CJ/	.	.	.	.	.	.	.	.	8cJ/	.	8cJ/	.	8cJ/	.	8cJ/	.	8cJ/	.	8ccJ	.
8CL	.	.	4E	ter-	4e	ter-	4cc	ter-	8cL	.	8cL	.	4c	.	4c	.	8cL	.	8ccL	.
16DL	.	.	.	.	.	.	.	.	16dL	.	16dL	.	.	.	.	.	16dL	.	16ddL	.
16EJJ	.	.	.	.	.	.	.	.	16eJJ	.	16eJJ	.	.	.	.	.	16eJJ	.	16eeJJ	.
16FLL	.	.	4G	-ra	4g	-ra	4cc	-ra	16fLL	.	16fLL	.	4r	.	4r	.	16fLL	.	16ffLL	.
16G	.	.	.	.	.	.	.	.	16g	.	16g	.	.	.	.	.	16g	.	16gg	.
16A	.	.	.	.	.	.	.	.	16a	.	16a	.	.	.	.	.	16a	.	16aa	.
16BJJ	.	.	.	.	.	.	.	.	16bJJ	.	16bJJ	.	.	.	.	.	16bJJ	.	16bbJJ	.
=2	=2	=2	=2	=2	=2	=2	=2	=2	=2	=2	=2	=2	=2	=2	=2	=2	=2	=2	=2	=2
8cL\	.	.	4c	pax	4e	pax	4cc	pax	8ccL\	.	4cc	.	4c	.	4cc	.	4cc	.	4ccc	.
8C/	.	.	.	.	.	.	.	.	8g/	.	.	.	.	.	.	.	.	.	.	.
8C/	.	.	4r	.	4r	.	4r	.	8e/	.	4g	.	4g	.	4g	.	4r	.	4r	.
8CJ/	.	.	.	.	.	.	.	.	8gJ/	.	.	.	.	.	.	.	.	.	.	.
*tremolo	*	*	*	*	*	*	*	*	*	*	*	*	*	*	*	*	*	*	*	*
8CL	.	.	2r	.	2r	.	2r	.	8ccL\	.	4ee	.	4cc	.	4ee	.	2r	.	2r	.
8C	.	.	.	.	.	.	.	.	8g/	.	.	.	.	.	.	.	.	.	.	.
8C	.	.	.	.	.	.	.	.	8e/	.	4cc	.	4g	.	4cc	.	.	.	.	.
8CJ	.	.	.	.	.	.	.	.	8gJ/	.	.	.	.	.	.	.	.	.	.	.
=3	=3	=3	=3	=3	=3	=3	=3	=3	=3	=3	=3	=3	=3	=3	=3	=3	=3	=3	=3	=3
*2\right	*	*	*	*	*	*	*	*	*	*	*	*	*2\right	*	*2\right	*	*	*	*	*
8CL	.	.	1r	.	1r	.	1r	.	8eL	.	4gg	.	2ee	.	2gg	.	1r	.	1r	.
8C	.	.	.	.	.	.	.	.	8g	.	.	.	.	.	.	.	.	.	.	.
.	.	.	.	.	.	.	.	.	.	.	8qqaa/	.	.	.	.	.	.	.	.	.
8C	.	.	.	.	.	.	.	.	8e	.	8ggL	.	.	.	.	.	.	.	.	.
8CJ	.	.	.	.	.	.	.	.	8gJ	.	16ff#XL	.	.	.	.	.	.	.	.	.
.	.	.	.	.	.	.	.	.	.	.	16ggJJ	.	.	.	.	.	.	.	.	.
8cL	.	.	.	.	.	.	.	.	8eL	.	4ee	.	4cc	.	4ee	.	.	.	.	.
8c	.	.	.	.	.	.	.	.	8g	.	.	.	.	.	.	.	.	.	.	.
8c	.	.	.	.	.	.	.	.	8e	.	8r	.	4r	.	4r	.	.	.	.	.
8cJ	.	.	.	.	.	.	.	.	8gJ	.	16ccLL	.	.	.	.	.	.	.	.	.
.	.	.	.	.	.	.	.	.	.	.	16ddJJ	.	.	.	.	.	.	.	.	.
!	!	!	!	!	!	!	!	!	!LO:LB:g=original	!	!LO:LB:g=original	!	!	!	!	!	!	!	!	!
=4	=4	=4	=4	=4	=4	=4	=4	=4	=4	=4	=4	=4	=4	=4	=4	=4	=4	=4	=4	=4
8FL	6	.	4F	pax	8gL	pax	8eeL	pax	(<8gL	.	8eeL	.	1r	.	1r	.	1r	.	1r	.
8F	.	.	.	.	8fJ	.	8ddJ	.	8f	.	(8dd	.	.	.	.	.	.	.	.	.
8F	.	.	4F	ho-	8aL	ho-	8ffL	ho-	8a	.	8ff	.	.	.	.	.	.	.	.	.
8FJ	.	.	.	.	8fJ	.	8ddJ	.	8fJ)	.	8ddJ)	.	.	.	.	.	.	.	.	.
*Xtremolo	*	*	*	*	*	*	*	*	*	*	*	*	*	*	*	*	*	*	*	*
8GL\	6 4	.	4G	-mi-	8fL	-mi-	8ddL	-mi-	(<8fL	.	(>8ddL	.	.	.	.	.	.	.	.	.
8G\	.	.	.	.	8eJ	.	8ccJ	.	8e)	.	8cc)	.	.	.	.	.	.	.	.	.
8GG/	5 3	.	4GG	-ni-	8eL	-ni-	8ccL	-ni-	(<8e	.	(>8cc	.	.	.	.	.	.	.	.	.
8GGJ/	.	.	.	.	8dJ	.	8bJ	.	8dJ)	.	8bJ)	.	.	.	.	.	.	.	.	.
!LO:LB:g=original	!	!	!LO:LB:g=original	!	!	!	!	!	!	!	!	!	!	!	!	!	!	!	!	!
=5	=5	=5	=5	=5	=5	=5	=5	=5	=5	=5	=5	=5	=5	=5	=5	=5	=5	=5	=5	=5
4C	.	.	4C	-bus	4e	-bus	4cc	-bus	16eLL	.	(<16ccLL\	.	4e	.	4cc	.	16r	.	16r	.
.	.	.	.	.	.	.	.	.	16c	.	16c/	.	.	.	.	.	16cLL	.	16ccLL	.
.	.	.	.	.	.	.	.	.	16d	.	16d/	.	.	.	.	.	16d	.	16dd	.
.	.	.	.	.	.	.	.	.	16eJJ	.	16eJJ/)	.	.	.	.	.	16eJJ	.	16eeJJ	.
4r	.	.	4r	.	4r	.	4r	.	16fLL	.	(<16fLL	.	4r	.	4r	.	16fLL	.	16ffLL	.
.	.	.	.	.	.	.	.	.	16g	.	16g	.	.	.	.	.	16g	.	16gg	.
.	.	.	.	.	.	.	.	.	16a	.	16a	.	.	.	.	.	16a	.	16aa	.
.	.	.	.	.	.	.	.	.	16bJJ	.	16bJJ)	.	.	.	.	.	16bJJ	.	16bbJJ	.
4E	6	.	2r	.	2r	.	2r	.	16ccLL\	.	(<16ccLL\	.	4e	.	4cc	.	4cc	.	4ccc	.
.	.	.	.	.	.	.	.	.	16e/	.	16g	.	.	.	.	.	.	.	.	.
.	.	.	.	.	.	.	.	.	16f/	.	16a	.	.	.	.	.	.	.	.	.
.	.	.	.	.	.	.	.	.	16gJJ/	.	16bJJ)	.	.	.	.	.	.	.	.	.
4r	.	.	.	.	.	.	.	.	16aLL	.	(>16ccLL\	.	8r	.	8r	.	4r	.	4r	.
.	.	.	.	.	.	.	.	.	16b	.	16dd	.	.	.	.	.	.	.	.	.
.	.	.	.	.	.	.	.	.	16cc	.	16ee	.	16ccLL	.	16eeLL	.	.	.	.	.
.	.	.	.	.	.	.	.	.	16ddJJ	.	16ffJJ)	.	16ddJJ	.	16ffJJ	.	.	.	.	.
!	!	!	!	!	!LO:PB:g=original	!	!	!	!	!	!	!	!	!	!	!	!	!	!	!
=6	=6	=6	=6	=6	=6	=6	=6	=6	=6	=6	=6	=6	=6	=6	=6	=6	=6	=6	=6	=6
*tremolo	*	*	*2\right	*	*2\right	*	*2\right	*	*tremolo	*	*	*	*	*	*	*	*	*	*	*
8CL	.	.	4c	bo-	(>2e	bo-	2gg	bo-	8eL 8cc	.	4gg	.	4ee	.	4gg	.	1r	.	1r	.
8C	.	.	.	.	.	.	.	.	8e 8cc	.	.	.	.	.	.	.	.	.	.	.
8C	.	.	4c	-nae	.	.	.	.	8e 8cc	.	12ggL	.	4ee	.	4gg	.	.	.	.	.
.	.	.	.	.	.	.	.	.	.	.	12ccc	.	.	.	.	.	.	.	.	.
8CJ	.	.	.	.	.	.	.	.	8eJ 8cc	.	.	.	.	.	.	.	.	.	.	.
.	.	.	.	.	.	.	.	.	.	.	12ggJ	.	.	.	.	.	.	.	.	.
!	!	!	!	!	!	!	!LO:LB:g=original	!	!	!	!	!	!	!	!	!	!	!	!	!
*Xtremolo	*	*	*	*	*	*	*	*	*Xtremolo	*	*	*	*	*	*	*	*	*	*	*
8CL/	.	.	4c	bo-	4g)	.	4ee	-nae	8ccL\	.	8eeL	.	4cc	.	4ee	.	.	.	.	.
8c\	.	.	.	.	.	.	.	.	16eL/	.	16ccL	.	.	.	.	.	.	.	.	.
.	.	.	.	.	.	.	.	.	16fJJ/	.	16ddJJ	.	.	.	.	.	.	.	.	.
8C/	.	.	4C	-nae	4g	-nae	8ee	bo-	8gL	.	8eeL	.	4r	.	4r	.	.	.	.	.
8cJ\	.	.	.	.	.	.	8ee	-nae	8gJ	.	8eeJ	.	.	.	.	.	.	.	.	.
=7	=7	=7	=7	=7	=7	=7	=7	=7	=7	=7	=7	=7	=7	=7	=7	=7	=7	=7	=7	=7
*tremolo	*	*	*	*	*	*	*	*	*tremolo	*	*	*	*	*	*	*	*	*	*	*
8FL	6	.	4F	vo-	8gL	vo-	8eeL	vo-	8fL 8a	.	8eeL	.	1r	.	1r	.	1r	.	1r	.
8F	.	.	.	.	8fJ	.	8ddJ	.	8f 8a	.	8ddJ	.	.	.	.	.	.	.	.	.
8F	.	.	4F	-lun-	4a	-lun-	8ffL	-lun-	8f 8a	.	16ffLL	.	.	.	.	.	.	.	.	.
.	.	.	.	.	.	.	.	.	.	.	16ee	.	.	.	.	.	.	.	.	.
8FJ	.	.	.	.	.	.	8aaJ	.	8fJ 8a	.	16ff	.	.	.	.	.	.	.	.	.
.	.	.	.	.	.	.	.	.	.	.	16aaJJ	.	.	.	.	.	.	.	.	.
8GL	.	.	2G	-ta-	2g	-ta-	8ggL	-ta-	8dL 8b	.	8ggL	.	.	.	.	.	.	.	.	.
8G	.	.	.	.	.	.	8ff	.	8d 8b	.	8ff	.	.	.	.	.	.	.	.	.
8G	.	.	.	.	.	.	8dd	.	8d 8b	.	8dd	.	.	.	.	.	.	.	.	.
8GJ	.	.	.	.	.	.	8bJ	.	8dJ 8b	.	8bJ	.	.	.	.	.	.	.	.	.
!	!	!	!	!	!	!	!	!	!	!	!LO:LB:g=original	!	!	!	!	!	!LO:LB:g=original	!	!	!
=8	=8	=8	=8	=8	=8	=8	=8	=8	=8	=8	=8	=8	=8	=8	=8	=8	=8	=8	=8	=8
4C	.	.	4C	-tis	4e	-tis	4cc	-tis	4c	.	4cc	.	4c	.	4cc	.	4c	.	4cc	.
8E'L	.	.	4r	.	4r	.	4r	.	8eL	.	8eeL	.	8eL	.	8eeL	.	8eL	.	8eeL	.
8G'J	.	.	.	.	.	.	.	.	8gJ	.	8ggJ	.	8gJ	.	8ggJ	.	8gJ	.	8ggJ	.
!	!	!	!	!	!	!	!	!	!LO:LB:g=original	!	!	!	!	!	!LO:LB:g=original	!	!	!	!LO:LB:g=original	!
4C'	.	.	2r	.	2r	.	2r	.	4c	.	4cc	.	4c	.	4cc	.	4c	.	4cc	.
8E'L	.	.	.	.	.	.	.	.	8eL	.	8eeL	.	8eL	.	8eeL	.	8eL	.	8eeL	.
8G'J	.	.	.	.	.	.	.	.	8gJ	.	8ggJ	.	8gJ	.	8ggJ	.	8gJ	.	8ggJ	.
!	!	!	!	!	!	!	!	!	!	!	!	!	!LO:LB:g=original	!	!	!	!	!	!	!
=9	=9	=9	=9	=9	=9	=9	=9	=9	=9	=9	=9	=9	=9	=9	=9	=9	=9	=9	=9	=9
*	*	*	*	*	*	*	*	*	*2\right	*	*2\right	*	*	*	*	*	*2\right	*	*2\right	*
8cL	.	.	1r	.	1r	.	1r	.	4cc	.	4ccc	.	4e	.	4cc	.	4cc	.	4ccc	.
8GJ	.	.	.	.	.	.	.	.	.	.	.	.	.	.	.	.	.	.	.	.
8GL	.	.	.	.	.	.	.	.	8gL	.	8ggL	.	4r	.	4r	.	8gL	.	8ggL	.
8EJ	.	.	.	.	.	.	.	.	8eJ	.	8eeJ	.	.	.	.	.	8eJ	.	8eeJ	.
8CL	.	.	.	.	.	.	.	.	8cL 8e	.	4cc	.	2r	.	2r	.	2c	.	2cc	.
8C	.	.	.	.	.	.	.	.	8c 8e	.	.	.	.	.	.	.	.	.	.	.
8C	.	.	.	.	.	.	.	.	8c 8e	.	8eeL	.	.	.	.	.	.	.	.	.
8CJ	.	.	.	.	.	.	.	.	8cJ 8e	.	8ggJ	.	.	.	.	.	.	.	.	.
=10	=10	=10	=10	=10	=10	=10	=10	=10	=10	=10	=10	=10	=10	=10	=10	=10	=10	=10	=10	=10
8cL	6 4	.	2c	Lau-	2a	Lau-	2ff	Lau-	16aLL 16ff	.	4aa	.	2r	.	2r	.	2r	.	2r	.
.	.	.	.	.	.	.	.	.	16a 16ff	.	.	.	.	.	.	.	.	.	.	.
8c	.	.	.	.	.	.	.	.	16a 16ff	.	.	.	.	.	.	.	.	.	.	.
.	.	.	.	.	.	.	.	.	16a 16ff	.	.	.	.	.	.	.	.	.	.	.
8c	.	.	.	.	.	.	.	.	16a 16ff	.	4ff	.	.	.	.	.	.	.	.	.
.	.	.	.	.	.	.	.	.	16a 16ff	.	.	.	.	.	.	.	.	.	.	.
8cJ	.	.	.	.	.	.	.	.	16a 16ff	.	.	.	.	.	.	.	.	.	.	.
.	.	.	.	.	.	.	.	.	16aJJ 16ff	.	.	.	.	.	.	.	.	.	.	.
8cL	.	.	4c	-da-	4a	-da-	4ff	-da-	16aLL 16ff	.	4ccc	.	4r	.	4r	.	4r	.	4r	.
.	.	.	.	.	.	.	.	.	16a 16ff	.	.	.	.	.	.	.	.	.	.	.
8c	.	.	.	.	.	.	.	.	16a 16ff	.	.	.	.	.	.	.	.	.	.	.
.	.	.	.	.	.	.	.	.	16a 16ff	.	.	.	.	.	.	.	.	.	.	.
8c	.	.	4c	-mus	4a	-mus	4ff	-mus	16a 16ff	.	4aa	.	4c	.	4aa	.	4ff	.	4aa	.
.	.	.	.	.	.	.	.	.	16a 16ff	.	.	.	.	.	.	.	.	.	.	.
8cJ	.	.	.	.	.	.	.	.	16a 16ff	.	.	.	.	.	.	.	.	.	.	.
.	.	.	.	.	.	.	.	.	16aJJ 16ff	.	.	.	.	.	.	.	.	.	.	.
!	!	!	!LO:LB:g=original	!	!	!	!	!	!	!	!	!	!	!	!	!	!	!	!	!
=11	=11	=11	=11	=11	=11	=11	=11	=11	=11	=11	=11	=11	=11	=11	=11	=11	=11	=11	=11	=11
*	*	*	*	*	*	*	*	*	*	*	*	*	*tremolo	*	*	*	*	*	*	*
8cL	5 3	.	2c	te	4g	te	4ee	te	16ccLL 16ee	.	4.gg	.	8cL	.	4.gg	.	4ee	.	4gg	.
.	.	.	.	.	.	.	.	.	16cc 16ee	.	.	.	.	.	.	.	.	.	.	.
8c	.	.	.	.	.	.	.	.	16cc 16ee	.	.	.	8c	.	.	.	.	.	.	.
.	.	.	.	.	.	.	.	.	16cc 16ee	.	.	.	.	.	.	.	.	.	.	.
8c	.	.	.	.	4r	.	4r	.	16cc 16ee	.	.	.	8c	.	.	.	4ee	.	4gg	.
.	.	.	.	.	.	.	.	.	16cc 16ee	.	.	.	.	.	.	.	.	.	.	.
8cJ	.	.	.	.	.	.	.	.	16cc 16ee	.	8ee	.	8cJ	.	8ee	.	.	.	.	.
.	.	.	.	.	.	.	.	.	16ccJJ 16ee	.	.	.	.	.	.	.	.	.	.	.
*Xtremolo	*	*	*	*	*	*	*	*	*	*	*	*	*	*	*	*	*	*	*	*
8CL	.	.	4C	te	4g	te	2r	.	16ccLL 16ee	.	4cc	.	4c	.	4cc	.	4ee	.	4gg	.
.	.	.	.	.	.	.	.	.	16cc 16ee	.	.	.	.	.	.	.	.	.	.	.
8c	.	.	.	.	.	.	.	.	16cc 16ee	.	.	.	.	.	.	.	.	.	.	.
.	.	.	.	.	.	.	.	.	16cc 16ee	.	.	.	.	.	.	.	.	.	.	.
8C	.	.	4r	.	4r	.	.	.	16cc 16ee	.	8r	.	4r	.	4r	.	4r	.	4r	.
.	.	.	.	.	.	.	.	.	16cc 16ee	.	.	.	.	.	.	.	.	.	.	.
8cJ	.	.	.	.	.	.	.	.	16cc 16ee	.	8cc	.	.	.	.	.	.	.	.	.
.	.	.	.	.	.	.	.	.	16ccJJ 16ee	.	.	.	.	.	.	.	.	.	.	.
=12	=12	=12	=12	=12	=12	=12	=12	=12	=12	=12	=12	=12	=12	=12	=12	=12	=12	=12	=12	=12
*tremolo	*	*	*	*	*	*	*	*	*	*	*	*	*	*	*	*	*	*	*	*
8cL	6 4	.	4c	be-	4a	be-	4ff	be-	16aLL 16ff	.	8aaL	.	2r	.	2r	.	2r	.	2r	.
.	.	.	.	.	.	.	.	.	16a 16ff	.	.	.	.	.	.	.	.	.	.	.
8c	.	.	.	.	.	.	.	.	16a 16ff	.	8gg	.	.	.	.	.	.	.	.	.
.	.	.	.	.	.	.	.	.	16a 16ff	.	.	.	.	.	.	.	.	.	.	.
8c	.	.	4c	-ne-	4a	-ne-	4ff	-ne-	16a 16ff	.	8aa	.	.	.	.	.	.	.	.	.
.	.	.	.	.	.	.	.	.	16a 16ff	.	.	.	.	.	.	.	.	.	.	.
8cJ	.	.	.	.	.	.	.	.	16a 16ff	.	8ffJ	.	.	.	.	.	.	.	.	.
.	.	.	.	.	.	.	.	.	16aJJ 16ff	.	.	.	.	.	.	.	.	.	.	.
8cL	.	.	4c	-di-	4a	-di-	4ff	-di-	16aLL 16ff	.	8cccL	.	4r	.	4r	.	4r	.	4r	.
.	.	.	.	.	.	.	.	.	16a 16ff	.	.	.	.	.	.	.	.	.	.	.
8c	.	.	.	.	.	.	.	.	16a 16ff	.	8bb	.	.	.	.	.	.	.	.	.
.	.	.	.	.	.	.	.	.	16a 16ff	.	.	.	.	.	.	.	.	.	.	.
8c	.	.	8c	-ci-	8a	-ci-	8ff	-ci-	16a 16ff	.	8ccc	.	4c	.	4aa	.	4ff	.	4aa	.
.	.	.	.	.	.	.	.	.	16a 16ff	.	.	.	.	.	.	.	.	.	.	.
8cJ	.	.	8c	-mus	8a	-mus	8ff	-mus	16a 16ff	.	8aaJ	.	.	.	.	.	.	.	.	.
.	.	.	.	.	.	.	.	.	16aJJ 16ff	.	.	.	.	.	.	.	.	.	.	.
!	!	!	!	!	!LO:LB:g=original	!	!LO:LB:g=original	!	!	!	!LO:LB:g=original	!	!	!	!	!	!	!	!	!
=13	=13	=13	=13	=13	=13	=13	=13	=13	=13	=13	=13	=13	=13	=13	=13	=13	=13	=13	=13	=13
8cL	3	.	2c	te	4g	te	2ee	te	16ccLL 16ee	.	8ggL	.	8cL	.	4.gg	.	4.ee	.	8ggL	.
.	.	.	.	.	.	.	.	.	16cc 16ee	.	.	.	.	.	.	.	.	.	.	.
8c	.	.	.	.	.	.	.	.	16cc 16ee	.	8ff#X	.	8c	.	.	.	.	.	8ff#X	.
.	.	.	.	.	.	.	.	.	16cc 16ee	.	.	.	.	.	.	.	.	.	.	.
8c	.	.	.	.	4r	.	.	.	16cc 16ee	.	8gg	.	8c	.	.	.	.	.	8gg	.
.	.	.	.	.	.	.	.	.	16cc 16ee	.	.	.	.	.	.	.	.	.	.	.
8cJ	.	.	.	.	.	.	.	.	16cc 16ee	.	8eeJ	.	8cJ	.	8ee	.	8cc	.	8eeJ	.
.	.	.	.	.	.	.	.	.	16ccJJ 16ee	.	.	.	.	.	.	.	.	.	.	.
*Xtremolo	*	*	*	*	*	*	*	*	*	*	*	*	*	*	*	*	*	*	*	*
8CL/	.	.	2C	te	4e	te	2cc	te	16ccLL 16ee	.	4cc	.	4e	.	4cc	.	4e	.	4cc	.
.	.	.	.	.	.	.	.	.	16cc 16ee	.	.	.	.	.	.	.	.	.	.	.
8c\	.	.	.	.	.	.	.	.	16cc 16ee	.	.	.	.	.	.	.	.	.	.	.
.	.	.	.	.	.	.	.	.	16cc 16ee	.	.	.	.	.	.	.	.	.	.	.
8C/	.	.	.	.	4r	.	.	.	16cc 16ee	.	8r	.	4r	.	4r	.	4r	.	4r	.
.	.	.	.	.	.	.	.	.	16cc 16ee	.	.	.	.	.	.	.	.	.	.	.
8cJ\	.	.	.	.	.	.	.	.	16cc 16ee	.	8cc	.	.	.	.	.	.	.	.	.
.	.	.	.	.	.	.	.	.	16ccJJ 16ee	.	.	.	.	.	.	.	.	.	.	.
*tremolo	*	*	*	*	*	*	*	*	*Xtremolo	*	*	*	*Xtremolo	*	*	*	*	*	*	*
=14	=14	=14	=14	=14	=14	=14	=14	=14	=14	=14	=14	=14	=14	=14	=14	=14	=14	=14	=14	=14
8GL	.	.	4G	Glo-	8gL	a-	8bL	a-	16gLL	.	16bLL	.	4g	.	4.dd	.	1r	.	1r	.
.	.	.	.	.	.	.	.	.	16g	.	16b	.	.	.	.	.	.	.	.	.
8G	.	.	.	.	8aJ	.	8ccJ	.	16a	.	16cc	.	.	.	.	.	.	.	.	.
.	.	.	.	.	.	.	.	.	16aJJ	.	16ccJJ	.	.	.	.	.	.	.	.	.
8G	.	.	8G	-ri-	8bL	-do-	8dd	-do-	16bLL	.	16ddLL	.	8gL	.	.	.	.	.	.	.
.	.	.	.	.	.	.	.	.	16b	.	16dd	.	.	.	.	.	.	.	.	.
8GJ	.	.	8G	-fi-	8ccJ	.	8ee	.	16cc	.	16ee	.	8gJ	.	8ee	.	.	.	.	.
.	.	.	.	.	.	.	.	.	16ccJJ	.	16eeJJ	.	.	.	.	.	.	.	.	.
8GL	7	.	4G	-ca-	4dd	-ra-	4ff	-ra-	16ddLL	.	16ffLL	.	4g	.	8ffL	.	.	.	.	.
.	.	.	.	.	.	.	.	.	16dd	.	16ff	.	.	.	.	.	.	.	.	.
8G	.	.	.	.	.	.	.	.	16cc	.	16ee	.	.	.	8ee	.	.	.	.	.
.	.	.	.	.	.	.	.	.	16ccJJ	.	16eeJJ	.	.	.	.	.	.	.	.	.
8G	.	.	4G	-mus	4b	-mus	4dd	-mus	16ddLL	.	16ffLL	.	4g	.	8ff	.	.	.	.	.
.	.	.	.	.	.	.	.	.	16dd	.	16ff	.	.	.	.	.	.	.	.	.
8GJ	.	.	.	.	.	.	.	.	16b	.	16dd	.	.	.	8ddJ	.	.	.	.	.
.	.	.	.	.	.	.	.	.	16bJJ	.	16ddJJ	.	.	.	.	.	.	.	.	.
!	!	!	!	!	!	!	!	!	!LO:LB:g=original	!	!	!	!	!	!	!	!	!	!	!
=15	=15	=15	=15	=15	=15	=15	=15	=15	=15	=15	=15	=15	=15	=15	=15	=15	=15	=15	=15	=15
*	*	*	*	*	*	*	*	*	*tremolo	*	*	*	*	*	*	*	*	*	*	*
8CL	.	.	2c	te	2cc	te	2ee	te	16eLL 16cc\	.	8eeL	.	4cc	.	4ee	.	1r	.	1r	.
.	.	.	.	.	.	.	.	.	16e 16cc	.	.	.	.	.	.	.	.	.	.	.
8C	.	.	.	.	.	.	.	.	16e 16cc	.	16ccL	.	.	.	.	.	.	.	.	.
.	.	.	.	.	.	.	.	.	16e 16cc	.	16ddJJ	.	.	.	.	.	.	.	.	.
8C	.	.	.	.	.	.	.	.	16e 16cc	.	8eeL	.	4r	.	4r	.	.	.	.	.
.	.	.	.	.	.	.	.	.	16e 16cc	.	.	.	.	.	.	.	.	.	.	.
8CJ	.	.	.	.	.	.	.	.	16e 16cc	.	8ccJ	.	.	.	.	.	.	.	.	.
.	.	.	.	.	.	.	.	.	16eJJ 16cc	.	.	.	.	.	.	.	.	.	.	.
8cL	.	.	2C	te	2g	te	2gg	te	16eLL 16cc\	.	2gg	.	2r	.	2r	.	.	.	.	.
.	.	.	.	.	.	.	.	.	16e 16cc	.	.	.	.	.	.	.	.	.	.	.
8c	.	.	.	.	.	.	.	.	16e 16cc	.	.	.	.	.	.	.	.	.	.	.
.	.	.	.	.	.	.	.	.	16e 16cc	.	.	.	.	.	.	.	.	.	.	.
8c	.	.	.	.	.	.	.	.	16e 16cc	.	.	.	.	.	.	.	.	.	.	.
.	.	.	.	.	.	.	.	.	16e 16cc	.	.	.	.	.	.	.	.	.	.	.
8cJ	.	.	.	.	.	.	.	.	16e 16cc	.	.	.	.	.	.	.	.	.	.	.
.	.	.	.	.	.	.	.	.	16eJJ 16cc	.	.	.	.	.	.	.	.	.	.	.
*	*	*	*	*	*	*	*	*	*Xtremolo	*	*	*	*	*	*	*	*	*	*	*
!	!	!	!LO:LB:g=original	!	!	!	!	!	!	!	!	!	!	!	!LO:LB:g=original	!	!	!	!	!
=16	=16	=16	=16	=16	=16	=16	=16	=16	=16	=16	=16	=16	=16	=16	=16	=16	=16	=16	=16	=16
8GL	.	.	(>4G	a-	8gL	glo-	8bL	glo-	16gLL\	.	(>16bLL	.	4g	.	8ddL	.	1r	.	1r	.
.	.	.	.	.	.	.	.	.	16b	.	16dd	.	.	.	.	.	.	.	.	.
8G	.	.	.	.	8aJ	.	8ccJ	.	16a	.	16cc	.	.	.	8cc	.	.	.	.	.
.	.	.	.	.	.	.	.	.	16ccJJ	.	16eeJJ)	.	.	.	.	.	.	.	.	.
8G	.	.	8G)	.	8b	-ri-	8dd	-ri-	16bLL	.	(>16ddLL	.	8gL/	.	8dd	.	.	.	.	.
.	.	.	.	.	.	.	.	.	16dd	.	16ff	.	.	.	.	.	.	.	.	.
8GJ	.	.	8G	-do-	8cc	-fi-	8ee	-fi-	16cc	.	16ee	.	8ccJ\	.	8eeJ	.	.	.	.	.
.	.	.	.	.	.	.	.	.	16eeJJ	.	16ggJJ)	.	.	.	.	.	.	.	.	.
!	!	!	!	!	!	!	!	!	!	!	!LO:LB:g=original	!	!	!	!	!	!	!	!	!
8GL	7	.	4G	-ra-	4dd	-ca-	4ff	-ca-	8ddL\	.	(>16ffLL	.	8ddL	.	8ffL	.	.	.	.	.
.	.	.	.	.	.	.	.	.	.	.	16gg)	.	.	.	.	.	.	.	.	.
8G	.	.	.	.	.	.	.	.	8cc\	.	(>16ee	.	8cc	.	8ee	.	.	.	.	.
.	.	.	.	.	.	.	.	.	.	.	16ffJJ)	.	.	.	.	.	.	.	.	.
8G	.	.	4G	-mus	4g	-mus	4dd	-mus	8dd\	.	8ff`L	.	8dd	.	8ff	.	.	.	.	.
8GJ	.	.	.	.	.	.	.	.	8gJ/	.	8ee`J	.	8gJ	.	8ddJ	.	.	.	.	.
=17	=17	=17	=17	=17	=17	=17	=17	=17	=17	=17	=17	=17	=17	=17	=17	=17	=17	=17	=17	=17
4c	.	.	2r	.	2r	.	2r	.	8GL 8g	.	(>8eeL	.	4cc	.	4ee	.	1r	.	1r	.
.	.	.	.	.	.	.	.	.	8e	.	8cc	.	.	.	.	.	.	.	.	.
4G	.	.	.	.	.	.	.	.	8G 8f	.	8dd	.	4g	.	4dd	.	.	.	.	.
.	.	.	.	.	.	.	.	.	8dJ	.	8bJ)	.	.	.	.	.	.	.	.	.
8EL	.	.	2c	te	2e	te	2cc	te	2G 2e	.	2cc	.	2e	.	2cc	.	.	.	.	.
8G	.	.	.	.	.	.	.	.	.	.	.	.	.	.	.	.	.	.	.	.
8E	.	.	.	.	.	.	.	.	.	.	.	.	.	.	.	.	.	.	.	.
8CJ	.	.	.	.	.	.	.	.	.	.	.	.	.	.	.	.	.	.	.	.
!	!	!	!	!	!LO:LB:g=original	!	!	!	!	!	!	!	!LO:LB:g=original	!	!	!	!LO:PB:g=original	!	!LO:PB:g=original	!
=18	=18	=18	=18	=18	=18	=18	=18	=18	=18	=18	=18	=18	=18	=18	=18	=18	=18	=18	=18	=18
!LO:TX:a:t=Solo	!	!	!	!	!	!	!	!	!	!	!	!	!	!	!	!	!	!	!	!
8GL	.	p	4G	a-	8gL	a-	8bL	a-	16gLL	p	(>8bL	p	1r	.	1r	.	8gL\	p	8bL	p
.	.	.	.	.	.	.	.	.	16g	.	.	.	.	.	.	.	.	.	.	.
8G	.	.	.	.	8aJ	.	8ccJ	.	16a	.	8cc	.	.	.	.	.	8a	.	8cc	.
.	.	.	.	.	.	.	.	.	16aJJ	.	.	.	.	.	.	.	.	.	.	.
8G	.	.	4G	-do-	8bL	-do-	8ddL	-do-	16bLL	.	8dd	.	.	.	.	.	8b	.	8dd	.
.	.	.	.	.	.	.	.	.	16b	.	.	.	.	.	.	.	.	.	.	.
8GJ	.	.	.	.	8ccJ	.	8eeJ	.	16cc	.	8eeJ)	.	.	.	.	.	8ccJ	.	8eeJ	.
.	.	.	.	.	.	.	.	.	16ccJJ	.	.	.	.	.	.	.	.	.	.	.
8GL	.	.	4G	-ra-	4dd	-ra-	4ff	-ra-	16ddLL	.	8ffL	.	.	.	.	.	8ddL	.	8ffL	.
.	.	.	.	.	.	.	.	.	16dd	.	.	.	.	.	.	.	.	.	.	.
8G	.	.	.	.	.	.	.	.	16cc	.	8ee	.	.	.	.	.	8cc	.	8ee	.
.	.	.	.	.	.	.	.	.	16ccJJ	.	.	.	.	.	.	.	.	.	.	.
8G	.	.	4G	-mus	4b	-mus	4dd	-mus	16ddLL	.	8ff	.	.	.	.	.	8dd	.	8ff	.
.	.	.	.	.	.	.	.	.	16dd	.	.	.	.	.	.	.	.	.	.	.
8GJ	.	.	.	.	.	.	.	.	16b	.	8ddJ	.	.	.	.	.	8bJ	.	8ddJ	.
.	.	.	.	.	.	.	.	.	16bJJ	.	.	.	.	.	.	.	.	.	.	.
!	!	!	!	!	!	!	!LO:LB:g=original	!	!LO:LB:g=original	!	!	!	!	!	!	!	!	!	!	!
=19	=19	=19	=19	=19	=19	=19	=19	=19	=19	=19	=19	=19	=19	=19	=19	=19	=19	=19	=19	=19
*	*	*	*	*	*	*	*	*	*tremolo	*	*	*	*	*	*	*	*tremolo	*	*	*
8cL	.	.	2c	te	2cc	te	2ee	te	16eLL 16cc\	.	8eeL	.	1r	.	1r	.	8ccL	.	8eeL	.
.	.	.	.	.	.	.	.	.	16e 16cc	.	.	.	.	.	.	.	.	.	.	.
8c	.	.	.	.	.	.	.	.	16e 16cc	.	16ccL	.	.	.	.	.	8cc	.	16ccL	.
.	.	.	.	.	.	.	.	.	16e 16cc	.	16ddJJ	.	.	.	.	.	.	.	16ddJJ	.
8c	.	.	.	.	.	.	.	.	16e 16cc	.	8eeL	.	.	.	.	.	8cc	.	8eeL	.
.	.	.	.	.	.	.	.	.	16e 16cc	.	.	.	.	.	.	.	.	.	.	.
8cJ	.	.	.	.	.	.	.	.	16e 16cc	.	8ccJ	.	.	.	.	.	8ccJ	.	8ccJ	.
.	.	.	.	.	.	.	.	.	16eJJ 16cc	.	.	.	.	.	.	.	.	.	.	.
*	*	*	*	*	*	*	*	*	*	*	*	*	*	*	*	*	*Xtremolo	*	*	*
8cL	.	.	2C	te	2g	te	2gg	te	16eLL 16cc\	.	2gg	.	.	.	.	.	2ee	.	2gg	.
.	.	.	.	.	.	.	.	.	16e 16cc	.	.	.	.	.	.	.	.	.	.	.
8c	.	.	.	.	.	.	.	.	16e 16cc	.	.	.	.	.	.	.	.	.	.	.
.	.	.	.	.	.	.	.	.	16e 16cc	.	.	.	.	.	.	.	.	.	.	.
8c	.	.	.	.	.	.	.	.	16e 16cc	.	.	.	.	.	.	.	.	.	.	.
.	.	.	.	.	.	.	.	.	16e 16cc	.	.	.	.	.	.	.	.	.	.	.
8cJ	.	.	.	.	.	.	.	.	16e 16cc	.	.	.	.	.	.	.	.	.	.	.
.	.	.	.	.	.	.	.	.	16eJJ 16cc	.	.	.	.	.	.	.	.	.	.	.
*	*	*	*	*	*	*	*	*	*Xtremolo	*	*	*	*	*	*	*	*	*	*	*
!LO:LB:g=original	!	!	!	!	!	!	!	!	!	!	!	!	!	!	!	!	!	!	!	!
=20	=20	=20	=20	=20	=20	=20	=20	=20	=20	=20	=20	=20	=20	=20	=20	=20	=20	=20	=20	=20
8GL	.	.	4G	glo-	8gL	Glo-	8bL	glo-	16gLL\	.	(>16bLL	.	1r	.	1r	.	8gL\	.	8bL	.
.	.	.	.	.	.	.	.	.	16b	.	16dd)	.	.	.	.	.	.	.	.	.
8G	.	.	.	.	8aJ	.	8ccJ	.	16a	.	(>16cc	.	.	.	.	.	8a	.	8cc	.
.	.	.	.	.	.	.	.	.	16ccJJ	.	16eeJJ)	.	.	.	.	.	.	.	.	.
8G	.	.	8G	-ri-	8b	-ri-	8dd	-ri-	16bLL	.	(>16ddLL	.	.	.	.	.	8b	.	8dd	.
.	.	.	.	.	.	.	.	.	16dd	.	16ff	.	.	.	.	.	.	.	.	.
8GJ	.	.	8G	-fi-	8cc	-fi-	8ee	-fi-	16cc	.	16ee	.	.	.	.	.	8ccJ	.	8eeJ	.
.	.	.	.	.	.	.	.	.	16eeJJ	.	16ggJJ)	.	.	.	.	.	.	.	.	.
!	!	!	!	!	!	!	!	!	!	!	!LO:LB:g=original	!	!	!	!	!	!	!	!	!
8GL	7	.	4G	-ca-	4dd	-ca-	4ff	-ca-	8ddL	.	(>16ffLL	.	.	.	.	.	8ddL	.	8ffL	.
.	.	.	.	.	.	.	.	.	.	.	16gg)	.	.	.	.	.	.	.	.	.
8G	.	.	.	.	.	.	.	.	8cc	.	(>16ee	.	.	.	.	.	8cc	.	8ee	.
.	.	.	.	.	.	.	.	.	.	.	16ggJJ)	.	.	.	.	.	.	.	.	.
8G	.	.	4G	-mus	4g	-mus	4dd	-mus	8dd	.	8ff`L	.	.	.	.	.	8dd	.	8ff	.
8GJ	.	.	.	.	.	.	.	.	8gJ	.	8dd`J	.	.	.	.	.	8bJ	.	8ddJ	.
!	!	!	!LO:LB:g=original	!	!	!	!	!	!	!	!	!	!	!	!	!	!	!	!	!
=21	=21	=21	=21	=21	=21	=21	=21	=21	=21	=21	=21	=21	=21	=21	=21	=21	=21	=21	=21	=21
4c	.	.	2r	.	2r	.	8eeL	te-	(<8gL	.	(>8eeL	.	1r	.	1r	.	8gL	.	8eeL	.
.	.	.	.	.	.	.	8cc	.	8e)	.	8cc	.	.	.	.	.	8e	.	8cc	.
4G	.	.	.	.	.	.	8dd	.	(<8f	.	8dd	.	.	.	.	.	8f	.	8dd	.
.	.	.	.	.	.	.	8bJ	.	8dJ)	.	8bJ)	.	.	.	.	.	8dJ	.	8bJ	.
8CL	.	.	2c	te	2e	te	2cc	-te	2G 2e	.	2cc	.	.	.	.	.	2e	.	2cc	.
8E	.	.	.	.	.	.	.	.	.	.	.	.	.	.	.	.	.	.	.	.
8G	.	.	.	.	.	.	.	.	.	.	.	.	.	.	.	.	.	.	.	.
8cJ	.	.	.	.	.	.	.	.	.	.	.	.	.	.	.	.	.	.	.	.
!	!	!	!	!	!	!	!	!	!	!	!	!	!	!	!	!	!	!	!LO:LB:g=original	!
=22	=22	=22	=22	=22	=22	=22	=22	=22	=22	=22	=22	=22	=22	=22	=22	=22	=22	=22	=22	=22
!	!	!	!	!	!LO:TX:a:t=Solo	!	!	!	!	!	!	!	!	!	!	!	!	!	!	!
8cL	.	.	2r	.	8gL	gra-	2r	.	(>8eeL	.	(>8ggL	.	1r	.	1r	.	2r	.	2r	.
8c	.	.	.	.	8f#XJ	.	.	.	8dd)	.	8ff#X	.	.	.	.	.	.	.	.	.
8c	.	.	.	.	8a	-ti-	.	.	(>8ff	.	8aa	.	.	.	.	.	.	.	.	.
8cJ	.	.	.	.	8g	-as	.	.	8eeJ)	.	8ggJ)	.	.	.	.	.	.	.	.	.
*	*	*	*	*	*	*	*	*	*tremolo	*	*	*	*	*	*	*	*	*	*	*
8cL	.	.	8c	a-	8cc	a-	8ee	a-	8ccL 8ee	.	4ccc	.	.	.	.	.	4gg	.	4ccc	.
8c	.	.	8c	-gi-	8cc	-gi-	8ee	-gi-	8cc 8ee	.	.	.	.	.	.	.	.	.	.	.
8c	.	.	4C	-mus	4g	-mus	4ee	-mus	8cc 8ee	.	4gg	.	.	.	.	.	4ee	.	4gg	.
8cJ	.	.	.	.	.	.	.	.	8ccJ 8ee	.	.	.	.	.	.	.	.	.	.	.
*	*	*	*	*	*	*	*	*	*Xtremolo	*	*	*	*	*	*	*	*	*	*	*
!	!	!	!	!	!LO:LB:g=original	!	!	!	!	!	!	!	!	!	!	!	!LO:LB:g=original	!	!	!
=23	=23	=23	=23	=23	=23	=23	=23	=23	=23	=23	=23	=23	=23	=23	=23	=23	=23	=23	=23	=23
8cL	.	.	2r	.	8gL	a-	2r	.	(>8eeL	.	(>8ggL	.	1r	.	1r	.	2r	.	2r	.
8c	.	.	.	.	8f#XJ	.	.	.	8dd)	.	8ff#X)	.	.	.	.	.	.	.	.	.
8c	.	.	.	.	8a	-gi-	.	.	(>8ff	.	(>8aa	.	.	.	.	.	.	.	.	.
8cJ	.	.	.	.	8g	-mus	.	.	8eeJ)	.	8ggJ)	.	.	.	.	.	.	.	.	.
8cL	.	.	4c	ti-	4g	ti-	4ee	ti-	4ee	.	4gg	.	.	.	.	.	4ee	.	4gg	.
8c	.	.	.	.	.	.	.	.	.	.	.	.	.	.	.	.	.	.	.	.
8c	.	.	4C	-bi	4e	-bi	4cc	-bi	4cc	.	4ee	.	.	.	.	.	4cc	.	4ee	.
8cJ	.	.	.	.	.	.	.	.	.	.	.	.	.	.	.	.	.	.	.	.
=24	=24	=24	=24	=24	=24	=24	=24	=24	=24	=24	=24	=24	=24	=24	=24	=24	=24	=24	=24	=24
!!pagebreak:original
8CL	.	.	2r	.	8gL	pro-	2r	.	(>8eeL	.	(>8ggL	.	1r	.	1r	.	2r	.	2r	.
8C	.	.	.	.	8f#XJ	.	.	.	8dd)	.	8ff#X)	.	.	.	.	.	.	.	.	.
8C	.	.	.	.	8aL	-pter	.	.	(>8ff	.	(>8aa	.	.	.	.	.	.	.	.	.
8CJ	.	.	.	.	8gJ	.	.	.	8eeJ)	.	8ggJ)	.	.	.	.	.	.	.	.	.
!	!	!	!	!	!	!	!LO:LB:g=original	!	!LO:LB:g=original	!	!	!	!	!	!	!	!	!	!	!
*	*	*	*	*	*	*	*	*	*tremolo	*	*	*	*	*	*	*	*	*	*	*
8CL	.	.	4c	mag-	4cc	mag-	4ee	mag-	8ccL 8ee	.	8ccc`L	.	.	.	.	.	8ggL	.	8ccc`L	.
8C	.	.	.	.	.	.	.	.	8cc 8ee	.	8ccc`J	.	.	.	.	.	8ggJ	.	8ccc`J	.
8C	.	.	4C	-nam	4g	-nam	4cc	-nam	8cc 8ee	.	4gg	.	.	.	.	.	4ee	.	4gg`	.
8CJ	.	.	.	.	.	.	.	.	8ccJ 8ee	.	.	.	.	.	.	.	.	.	.	.
!	!	!	!	!	!	!	!	!	!	!	!LO:LB:g=original	!	!	!	!	!	!	!	!	!
=25	=25	=25	=25	=25	=25	=25	=25	=25	=25	=25	=25	=25	=25	=25	=25	=25	=25	=25	=25	=25
4c	.	.	4c	Glo-	4g	Glo-	4cc	Glo-	8gL	.	(>8eeL	.	1r	.	1r	.	(<8gL	.	(>8eeL	.
.	.	.	.	.	.	.	.	.	8e	.	8cc)	.	.	.	.	.	8e)	.	8cc	.
4G	.	.	8G	-ri-	8g	-ri-	8g/	-ri-	8f	.	(>8dd	.	.	.	.	.	(<8f	.	8dd	.
.	.	.	8G	-am	8g	-am	8g/	-am	8dJ	.	8bJ)	.	.	.	.	.	8dJ)	.	8bJ)	.
8cL	.	.	4C	tu-	4e	tu-	4cc	tu-	2G 2e	.	2cc	.	.	.	.	.	2e	.	2cc	.
8G	.	.	.	.	.	.	.	.	.	.	.	.	.	.	.	.	.	.	.	.
8E	.	.	4C	-am	4e	-am	4cc	-am	.	.	.	.	.	.	.	.	.	.	.	.
8CJ	.	.	.	.	.	.	.	.	.	.	.	.	.	.	.	.	.	.	.	.
=26	=26	=26	=26	=26	=26	=26	=26	=26	=26	=26	=26	=26	=26	=26	=26	=26	=26	=26	=26	=26
!LO:TX:a:t=Tutti	!	!	!	!	!	!	!	!	!	!	!	!	!	!	!	!	!	!	!	!
8GL	.	f	2G	Do-	2b	Do-	2dd	Do-	16dLL 16b	f	16bLL	f	4r	.	4r	.	2r	.	2r	.
.	.	.	.	.	.	.	.	.	16d 16b	.	16cc	.	.	.	.	.	.	.	.	.
8G	.	.	.	.	.	.	.	.	16d 16b	.	16dd	.	.	.	.	.	.	.	.	.
.	.	.	.	.	.	.	.	.	16d 16b	.	16eeJJ	.	.	.	.	.	.	.	.	.
8G	.	.	.	.	.	.	.	.	16d 16b	.	16ffLL	.	4dd	.	4ff	.	.	.	.	.
.	.	.	.	.	.	.	.	.	16d 16b	.	16gg	.	.	.	.	.	.	.	.	.
8GJ	.	.	.	.	.	.	.	.	16d 16b	.	16ff	.	.	.	.	.	.	.	.	.
.	.	.	.	.	.	.	.	.	16dJJ 16b	.	16eeJJ	.	.	.	.	.	.	.	.	.
!	!	!	!LO:LB:g=original	!	!	!	!	!	!	!	!	!	!	!	!	!	!	!	!	!
8GL	.	.	4G	-mi-	4b	-mi-	4dd	-mi-	16dLL 16b	.	16ffLL	.	4dd	.	4ff	.	4dd	f	4ff	f
.	.	.	.	.	.	.	.	.	16d 16b	.	16gg	.	.	.	.	.	.	.	.	.
8G	.	.	.	.	.	.	.	.	16d 16b	.	16ff	.	.	.	.	.	.	.	.	.
.	.	.	.	.	.	.	.	.	16d 16b	.	16ddJJ	.	.	.	.	.	.	.	.	.
8G	.	.	4G	-ne	4b	-ne	4dd	-ne	16d 16b	.	16bLL	.	4g	.	4dd	.	4b	.	4dd	.
.	.	.	.	.	.	.	.	.	16d 16b	.	16dd	.	.	.	.	.	.	.	.	.
8GJ	.	.	.	.	.	.	.	.	16d 16b	.	16b	.	.	.	.	.	.	.	.	.
.	.	.	.	.	.	.	.	.	16dJJ 16b	.	16gJJ	.	.	.	.	.	.	.	.	.
!LO:LB:g=original	!	!	!	!	!LO:LB:g=original	!	!	!	!	!	!	!	!	!	!	!	!	!	!	!
=27	=27	=27	=27	=27	=27	=27	=27	=27	=27	=27	=27	=27	=27	=27	=27	=27	=27	=27	=27	=27
8cL	.	???	2c	De-	2g	De-	2ee	De-	16eLL 16cc	.	16ccLL	.	8eL	.	4cc	.	2r	.	2r	.
.	.	.	.	.	.	.	.	.	16e 16cc	.	16dd	.	.	.	.	.	.	.	.	.
8c	.	.	.	.	.	.	.	.	16e 16cc	.	16ee	.	8c	.	.	.	.	.	.	.
.	.	.	.	.	.	.	.	.	16e 16cc	.	16ffJJ	.	.	.	.	.	.	.	.	.
8c	.	.	.	.	.	.	.	.	16e 16cc	.	16ggLL	.	8e	.	8ccL	.	.	.	.	.
.	.	.	.	.	.	.	.	.	16e 16cc	.	16aa	.	.	.	.	.	.	.	.	.
8cJ	.	.	.	.	.	.	.	.	16e 16cc	.	16gg	.	8gJ	.	8ccJ	.	.	.	.	.
.	.	.	.	.	.	.	.	.	16eJJ 16cc	.	16ff#XJJ	.	.	.	.	.	.	.	.	.
8cL	.	.	2C	-us	2g	-us	2ee	-us	16eLL 16cc	.	16ggLL	.	2e	.	2cc	.	8eeL	.	8ggL	.
.	.	.	.	.	.	.	.	.	16e 16cc	.	16aa	.	.	.	.	.	.	.	.	.
8c	.	.	.	.	.	.	.	.	16e 16cc	.	16gg	.	.	.	.	.	8ccJ	.	8eeJ	.
.	.	.	.	.	.	.	.	.	16e 16cc	.	16eeJJ	.	.	.	.	.	.	.	.	.
8c	.	.	.	.	.	.	.	.	16e 16cc	.	4cc	.	.	.	.	.	4e	.	4cc	.
.	.	.	.	.	.	.	.	.	16e 16cc	.	.	.	.	.	.	.	.	.	.	.
8cJ	.	.	.	.	.	.	.	.	16e 16cc	.	.	.	.	.	.	.	.	.	.	.
.	.	.	.	.	.	.	.	.	16eJJ 16cc	.	.	.	.	.	.	.	.	.	.	.
!	!	!	!	!	!	!	!	!	!	!	!LO:LB:g=original	!	!	!	!	!	!	!	!	!
=28	=28	=28	=28	=28	=28	=28	=28	=28	=28	=28	=28	=28	=28	=28	=28	=28	=28	=28	=28	=28
8GL	.	.	2.G	Rex	2.b	Rex	2.dd	Rex	16dLL 16b	.	16bLL	.	4r	.	4r	.	2r	.	2r	.
.	.	.	.	.	.	.	.	.	16d 16b	.	16cc	.	.	.	.	.	.	.	.	.
8G	.	.	.	.	.	.	.	.	16d 16b	.	16dd	.	.	.	.	.	.	.	.	.
.	.	.	.	.	.	.	.	.	16d 16b	.	16eeJJ	.	.	.	.	.	.	.	.	.
8G	.	.	.	.	.	.	.	.	16d 16b	.	16ffnLL	.	2dd	.	4ff	.	.	.	.	.
.	.	.	.	.	.	.	.	.	16d 16b	.	16gg	.	.	.	.	.	.	.	.	.
8GJ	.	.	.	.	.	.	.	.	16d 16b	.	16ff	.	.	.	.	.	.	.	.	.
.	.	.	.	.	.	.	.	.	16dJJ 16b	.	16eeJJ	.	.	.	.	.	.	.	.	.
!	!	!	!	!	!	!	!	!	!	!	!	!	!	!	!	!	!	!	!LO:LB:g=original	!
8GL	7	.	.	.	.	.	.	.	16dLL 16b	.	16ffLL	.	.	.	4ff	.	4dd	.	4ff	.
.	.	.	.	.	.	.	.	.	16d 16b	.	16gg	.	.	.	.	.	.	.	.	.
8G	.	.	.	.	.	.	.	.	16d 16b	.	16ff	.	.	.	.	.	.	.	.	.
.	.	.	.	.	.	.	.	.	16d 16b	.	16ddJJ	.	.	.	.	.	.	.	.	.
8G	.	.	4G	cae-	4b	cae-	8ddL	cae-	16d 16b	.	16bLL	.	4g	.	4dd	.	4b	.	4dd	.
.	.	.	.	.	.	.	.	.	16d 16b	.	16dd	.	.	.	.	.	.	.	.	.
8GJ	.	.	.	.	.	.	8ddJ	.	16d 16b	.	16b	.	.	.	.	.	.	.	.	.
.	.	.	.	.	.	.	.	.	16dJJ 16b	.	16gJJ	.	.	.	.	.	.	.	.	.
!	!	!	!	!	!	!	!	!	!	!	!	!	!	!	!	!	!LO:LB:g=original	!	!	!
=29	=29	=29	=29	=29	=29	=29	=29	=29	=29	=29	=29	=29	=29	=29	=29	=29	=29	=29	=29	=29
8cL	.	.	2c	-les-	4g	-les-	2ee	-les-	16eLL 16cc	.	16ccLL	.	4e	.	4cc	.	2r	.	2r	.
.	.	.	.	.	.	.	.	.	16e 16cc	.	16dd	.	.	.	.	.	.	.	.	.
8c	.	.	.	.	.	.	.	.	16e 16cc	.	16ee	.	.	.	.	.	.	.	.	.
.	.	.	.	.	.	.	.	.	16e 16cc	.	16ffJJ	.	.	.	.	.	.	.	.	.
8c	.	.	.	.	4g	-tis	.	.	16e 16cc	.	16ggLL	.	8eL	.	4cc	.	.	.	.	.
.	.	.	.	.	.	.	.	.	16e 16cc	.	16aa	.	.	.	.	.	.	.	.	.
8cJ	.	.	.	.	.	.	.	.	16e 16cc	.	16gg	.	8eJ	.	.	.	.	.	.	.
.	.	.	.	.	.	.	.	.	16eJJ 16cc	.	16ff#XJJ	.	.	.	.	.	.	.	.	.
8cL	.	.	2C	-tis	4g	De-	2ee	-tis	16eLL 16cc	.	16ggLL	.	2e	.	2cc	.	8ccL\	.	8ggL	.
.	.	.	.	.	.	.	.	.	16e 16cc	.	16aa	.	.	.	.	.	.	.	.	.
8c	.	.	.	.	.	.	.	.	16e 16cc	.	16gg	.	.	.	.	.	8gJ/	.	8eeJ	.
.	.	.	.	.	.	.	.	.	16e 16cc	.	16eeJJ	.	.	.	.	.	.	.	.	.
8c	.	.	.	.	4g	-us	.	.	16e 16cc	.	4cc	.	.	.	.	.	4cc	.	4cc	.
.	.	.	.	.	.	.	.	.	16e 16cc	.	.	.	.	.	.	.	.	.	.	.
8cJ	.	.	.	.	.	.	.	.	16e 16cc	.	.	.	.	.	.	.	.	.	.	.
.	.	.	.	.	.	.	.	.	16eJJ 16cc	.	.	.	.	.	.	.	.	.	.	.
=30	=30	=30	=30	=30	=30	=30	=30	=30	=30	=30	=30	=30	=30	=30	=30	=30	=30	=30	=30	=30
!LO:TX:a:t=Solo	!	!	!	!	!	!	!LO:TX:a:t=Solo	!	!	!	!	!	!	!	!	!	!	!	!	!
8CL	.	p	4c	De-	2g	Pa-	4.ee	Pa-	4.g	p	4.ee	p	1r	.	1r	.	1r	.	1r	.
8C	.	.	.	.	.	.	.	.	.	.	.	.	.	.	.	.	.	.	.	.
8C	.	.	8c	-us	.	.	.	.	.	.	.	.	.	.	.	.	.	.	.	.
8CJ	.	.	8c	Pa-	.	.	8cc	.	8e	.	8cc	.	.	.	.	.	.	.	.	.
8GL	.	.	4c	-ter	4g	-ter	8ddL	.	8fL	.	(>8ddL	.	.	.	.	.	.	.	.	.
8G	.	.	.	.	.	.	8ccJ	.	8e	.	8cc	.	.	.	.	.	.	.	.	.
8G	.	.	(>8cL	om-	4g	om-	8ddL	-ter	8f	.	8dd	.	.	.	.	.	.	.	.	.
8GJ	.	.	8cJ)	.	.	.	8eeJ	.	8gJ	.	8eeJ)	.	.	.	.	.	.	.	.	.
!	!	!	!	!	!	!	!LO:LB:g=original	!	!	!	!LO:LB:g=original	!	!	!	!	!	!	!	!	!
=31	=31	=31	=31	=31	=31	=31	=31	=31	=31	=31	=31	=31	=31	=31	=31	=31	=31	=31	=31	=31
8CL	.	.	4c	-ni-	4e	-ni-	4cc	om-	8GL 8e	.	4cc	.	1r	.	1r	.	1r	.	1r	.
8C	.	.	.	.	.	.	.	.	8G 8e	.	.	.	.	.	.	.	.	.	.	.
8C	.	.	4c	-po-	4e	-po-	8cc	-ni-	8G 8e	.	4cc	.	.	.	.	.	.	.	.	.
8CJ	.	.	.	.	.	.	8cc	-po-	8GJ 8e	.	.	.	.	.	.	.	.	.	.	.
!	!	!	!LO:LB:g=original	!	!	!	!	!	!	!	!	!	!	!	!	!	!	!	!	!
8cL	.	.	2c	-tens	2e	-tens	2gg	-tens	8GL 8e	.	2gg	.	.	.	.	.	.	.	.	.
8c	.	.	.	.	.	.	.	.	8G 8e	.	.	.	.	.	.	.	.	.	.	.
8c	.	.	.	.	.	.	.	.	8G 8e	.	.	.	.	.	.	.	.	.	.	.
8cJ	.	.	.	.	.	.	.	.	8GJ 8e	.	.	.	.	.	.	.	.	.	.	.
=32	=32	=32	=32	=32	=32	=32	=32	=32	=32	=32	=32	=32	=32	=32	=32	=32	=32	=32	=32	=32
8CL	.	.	4c	Do-	4g	Do-	4ee	Do-	4.g	.	4.ee	.	1r	.	1r	.	1r	.	1r	.
8C	.	.	.	.	.	.	.	.	.	.	.	.	.	.	.	.	.	.	.	.
8C	.	.	8c	-mi-	8g	-mi-	8cc	-mi-	.	.	.	.	.	.	.	.	.	.	.	.
8CJ	.	.	8c	-ne	8g	-ne	8cc	-ne	8e	.	8cc	.	.	.	.	.	.	.	.	.
!	!	!	!	!	!LO:LB:g=original	!	!	!	!LO:LB:g=original	!	!	!	!	!	!	!	!	!	!	!
8GL	.	.	8G	fi-	8g	fi-	8dd	fi-	8fL	.	(>8ddL	.	.	.	.	.	.	.	.	.
8G	.	.	8G	-li	8g	-li	8cc	-li	8e	.	8cc	.	.	.	.	.	.	.	.	.
8G	.	.	8G	u-	8g	u-	8dd	u-	8f	.	8dd	.	.	.	.	.	.	.	.	.
8GJ	.	.	8G	-ni-	8g	-ni-	8ee	-ni-	8gJ	.	8eeJ)	.	.	.	.	.	.	.	.	.
=33	=33	=33	=33	=33	=33	=33	=33	=33	=33	=33	=33	=33	=33	=33	=33	=33	=33	=33	=33	=33
4c'	.	.	4c	-ge-	4cc	-ge-	4cc	-ge-	4cc	.	4cc	.	1r	.	1r	.	1r	.	1r	.
4c'	.	.	4c	-ni-	4cc	-ni-	4cc	-ni-	4cc	.	4cc	.	.	.	.	.	.	.	.	.
2G'	.	.	2G	-te	2g	-te	2g/	-te	2G 2g	.	2g	.	.	.	.	.	.	.	.	.
=34	=34	=34	=34	=34	=34	=34	=34	=34	=34	=34	=34	=34	=34	=34	=34	=34	=34	=34	=34	=34
8cL	.	.	1r	.	1r	.	1r	.	4.g	.	4.ee	.	1r	.	1r	.	4.g	.	4.ee	.
8c	.	.	.	.	.	.	.	.	.	.	.	.	.	.	.	.	.	.	.	.
8c	.	.	.	.	.	.	.	.	.	.	.	.	.	.	.	.	.	.	.	.
8cJ	.	.	.	.	.	.	.	.	8e	.	8cc	.	.	.	.	.	8e	.	8cc	.
8GL	.	.	.	.	.	.	.	.	8fL	.	16ddLL	.	.	.	.	.	8fL	.	16ddLL	.
.	.	.	.	.	.	.	.	.	.	.	16ee	.	.	.	.	.	.	.	16ee	.
8G	.	.	.	.	.	.	.	.	8e	.	16dd	.	.	.	.	.	8e	.	16dd	.
.	.	.	.	.	.	.	.	.	.	.	16eeJJ	.	.	.	.	.	.	.	16ccJJ	.
8G	.	.	.	.	.	.	.	.	8f	.	8dd`L	.	.	.	.	.	8f	.	8ddL	.
8GJ	.	.	.	.	.	.	.	.	8gJ	.	8ee`J	.	.	.	.	.	8gJ	.	8eeJ	.
!LO:LB:g=original	!	!	!	!	!	!	!	!	!	!	!	!	!	!	!	!	!	!	!	!
=35	=35	=35	=35	=35	=35	=35	=35	=35	=35	=35	=35	=35	=35	=35	=35	=35	=35	=35	=35	=35
8CL	.	.	1r	.	1r	.	1r	.	8GL 8e	.	8ccL	.	1r	.	1r	.	8eL	.	8cc'L	.
8C	.	.	.	.	.	.	.	.	8G 8e	.	8cc	.	.	.	.	.	8g	.	8cc'	.
8C	.	.	.	.	.	.	.	.	8G 8e	.	8cc	.	.	.	.	.	8e	.	8cc'	.
8CJ	.	.	.	.	.	.	.	.	8GJ 8e	.	8ccJ	.	.	.	.	.	8eJ	.	8cc'J	.
8cL	.	.	.	.	.	.	.	.	8GL 8e	.	2gg	.	.	.	.	.	2ee	.	2gg	.
8c	.	.	.	.	.	.	.	.	8G 8e	.	.	.	.	.	.	.	.	.	.	.
8c	.	.	.	.	.	.	.	.	8G 8e	.	.	.	.	.	.	.	.	.	.	.
8cJ	.	.	.	.	.	.	.	.	8GJ 8e	.	.	.	.	.	.	.	.	.	.	.
!	!	!	!	!	!	!	!	!	!	!	!LO:LB:g=original	!	!	!	!	!	!	!	!	!
=36	=36	=36	=36	=36	=36	=36	=36	=36	=36	=36	=36	=36	=36	=36	=36	=36	=36	=36	=36	=36
8cL	.	.	(>4c	Je-	2g	Je-	8eeL	Je-	8GL 8f	.	8gg	.	1r	.	1r	.	8g	.	8gg	.
8c	.	.	.	.	.	.	8gg	.	8G 8f	.	4ee	.	.	.	.	.	4g	.	4ee	.
8c	.	.	4E)	.	.	.	8ee	.	8G 8f	.	.	.	.	.	.	.	.	.	.	.
8cJ	.	.	.	.	.	.	8ggJ	.	8GJ 8f	.	8gg	.	.	.	.	.	4g	.	8gg	.
8GL	.	.	(>4F	-su	4a	.	8ggL	.	8GL 8f	.	8ggL	.	.	.	.	.	.	.	8ggL	.
8G	.	.	.	.	.	.	8ffJ	.	8G 8f	.	8ff	.	.	.	.	.	4g	.	8ff	.
8G	.	.	4G)	.	4d	-su	8ddL	-su	8G 8f	.	8dd	.	.	.	.	.	.	.	8dd	.
8GJ	.	.	.	.	.	.	8bJ	.	8GJ 8f	.	8bJ	.	.	.	.	.	8g	.	8bJ	.
!	!	!	!LO:LB:g=original	!	!	!	!LO:LB:g=original	!	!	!	!	!	!	!	!	!	!	!	!	!
*	*	*	*	*	*	*	*	*	*Xtremolo	*	*	*	*	*	*	*	*	*	*	*
=37	=37	=37	=37	=37	=37	=37	=37	=37	=37	=37	=37	=37	=37	=37	=37	=37	=37	=37	=37	=37
!LO:TX:a:t=Tutti	!	!	!	!	!	!	!	!	!	!	!	!	!	!	!	!	!	!	!	!
4C	.	f	4C	Chris-	4e	Chris-	4cc	Chris-	8cL	f	8ccL	f	1r	.	1r	.	4e	.	4cc	.
.	.	.	.	.	.	.	.	.	16dL	.	16ddL	.	.	.	.	.	.	.	.	.
.	.	.	.	.	.	.	.	.	16eJJ	.	16eeJJ	.	.	.	.	.	.	.	.	.
4r	.	.	4C	-te	4e	-te	4cc	-te	16fLL	.	16ffLL	.	.	.	.	.	4r	.	4r	.
.	.	.	.	.	.	.	.	.	16g	.	16gg	.	.	.	.	.	.	.	.	.
.	.	.	.	.	.	.	.	.	16a	.	16aa	.	.	.	.	.	.	.	.	.
.	.	.	.	.	.	.	.	.	16b-XJJ	.	16bbJJ	.	.	.	.	.	.	.	.	.
!	!	!	!	!	!	!	!	!	!	!	!	!	!	!	!	!	!	!	!LO:LB:g=original	!
8cL	.	.	2r	.	2r	.	2r	.	8ccL\	.	8cccL	.	.	.	.	.	2r	.	2r	.
8B-X	.	.	.	.	.	.	.	.	8b-	.	8bb-X	.	.	.	.	.	.	.	.	.
8A	.	.	.	.	.	.	.	.	8a	.	8aa	.	.	.	.	.	.	.	.	.
8GJ	.	.	.	.	.	.	.	.	8gJ	.	8ggJ	.	.	.	.	.	.	.	.	.
!	!	!	!	!	!	!	!	!	!LO:LB:g=original	!	!	!	!	!	!	!	!LO:LB:g=original	!	!	!
=38	=38	=38	=38	=38	=38	=38	=38	=38	=38	=38	=38	=38	=38	=38	=38	=38	=38	=38	=38	=38
8FL	.	.	1r	.	1r	.	1r	.	8aL	.	4.ff	.	1r	.	1r	.	4.a\	.	4.ff	.
8F	.	.	.	.	.	.	.	.	8cc	.	.	.	.	.	.	.	.	.	.	.
8F	.	.	.	.	.	.	.	.	8a	.	.	.	.	.	.	.	.	.	.	.
8FJ	.	.	.	.	.	.	.	.	8ccJ	.	8aa	.	.	.	.	.	8cc	.	8aa	.
8FL	.	.	.	.	.	.	.	.	8aL	.	4.ff	.	.	.	.	.	4.a\	.	4.ff	.
8F	.	.	.	.	.	.	.	.	8cc	.	.	.	.	.	.	.	.	.	.	.
8F	.	.	.	.	.	.	.	.	8a	.	.	.	.	.	.	.	.	.	.	.
8FJ	.	.	.	.	.	.	.	.	8ccJ	.	8aa	.	.	.	.	.	8cc	.	8aa	.
=39	=39	=39	=39	=39	=39	=39	=39	=39	=39	=39	=39	=39	=39	=39	=39	=39	=39	=39	=39	=39
8CL	7-	.	1r	.	1r	.	1r	.	8GL 8e	.	8ggL	.	1r	.	1r	.	8cc	.	8ggL	.
8C	.	.	.	.	.	.	.	.	8g	.	8bb-X	.	.	.	.	.	4cc	.	8bb-X	.
8C	.	.	.	.	.	.	.	.	8G 8e	.	8gg	.	.	.	.	.	.	.	8gg	.
8CJ	.	.	.	.	.	.	.	.	8gJ	.	8eeJ	.	.	.	.	.	8cc	.	8eeJ	.
8CL	.	.	.	.	.	.	.	.	8GL 8e	.	2cc	.	.	.	.	.	2cc	.	2cc	.
8C	.	.	.	.	.	.	.	.	8g	.	.	.	.	.	.	.	.	.	.	.
8C	.	.	.	.	.	.	.	.	8G 8e	.	.	.	.	.	.	.	.	.	.	.
8CJ	.	.	.	.	.	.	.	.	8gJ	.	.	.	.	.	.	.	.	.	.	.
!	!	!	!	!	!	!	!	!	!	!	!LO:LB:g=original	!	!	!	!	!	!	!	!	!
=40	=40	=40	=40	=40	=40	=40	=40	=40	=40	=40	=40	=40	=40	=40	=40	=40	=40	=40	=40	=40
*	*	*	*	*	*	*	*	*	*tremolo	*	*	*	*	*	*	*	*	*	*	*
8FL	.	.	1r	.	1r	.	1r	.	8fL 8a	.	8ffL	.	1r	.	1r	.	1r	.	1r	.
8F	.	.	.	.	.	.	.	.	8f 8a	.	8aa	.	.	.	.	.	.	.	.	.
8F	.	.	.	.	.	.	.	.	8f 8a	.	8ccc	.	.	.	.	.	.	.	.	.
8FJ	.	.	.	.	.	.	.	.	8fJ 8a	.	8bbnJ	.	.	.	.	.	.	.	.	.
8FL	.	.	.	.	.	.	.	.	8fL 8a	.	(>8dddL	.	.	.	.	.	.	.	.	.
8F	.	.	.	.	.	.	.	.	8f 8a	.	8ccc	.	.	.	.	.	.	.	.	.
8F	.	.	.	.	.	.	.	.	8f 8a	.	8aa	.	.	.	.	.	.	.	.	.
8FJ	.	.	.	.	.	.	.	.	8fJ 8a	.	8ffJ)	.	.	.	.	.	.	.	.	.
*	*	*	*	*	*	*	*	*	*Xtremolo	*	*	*	*	*	*	*	*	*	*	*
=41	=41	=41	=41	=41	=41	=41	=41	=41	=41	=41	=41	=41	=41	=41	=41	=41	=41	=41	=41	=41
8cL	.	.	1r	.	1r	.	1r	.	8GL 8e	.	8ggL	.	1r	.	1r	.	8b-XL	.	8ggL	.
8c	.	.	.	.	.	.	.	.	8g	.	8bb-X	.	.	.	.	.	8dd	.	8bb-X	.
8c	.	.	.	.	.	.	.	.	8G 8e	.	8gg	.	.	.	.	.	8b-	.	8gg	.
8cJ	.	.	.	.	.	.	.	.	8gJ	.	8eeJ	.	.	.	.	.	8ccJ	.	8eeJ	.
8cL	.	.	.	.	.	.	.	.	8GL 8e	.	4.cc	.	.	.	.	.	2cc	.	2cc	.
8c	.	.	.	.	.	.	.	.	8g	.	.	.	.	.	.	.	.	.	.	.
8c	.	.	.	.	.	.	.	.	8G 8e	.	.	.	.	.	.	.	.	.	.	.
8cJ	.	.	.	.	.	.	.	.	8gJ	.	16ddLL	.	.	.	.	.	.	.	.	.
.	.	.	.	.	.	.	.	.	.	.	16eeJJ	.	.	.	.	.	.	.	.	.
=42	=42	=42	=42	=42	=42	=42	=42	=42	=42	=42	=42	=42	=42	=42	=42	=42	=42	=42	=42	=42
!LO:TX:a:t=Solo	!	!	!	!	!LO:TX:a:t=Solo	!	!	!	!	!	!LO:TX:a:t=Solo	!	!	!	!	!	!	!	!	!
8FL	.	p	1r	.	2f	Do-	1r	.	8aL	p	2ff	p	1r	.	1r	.	1r	.	1r	.
8F	.	.	.	.	.	.	.	.	(>8cc	.	.	.	.	.	.	.	.	.	.	.
8F	.	.	.	.	.	.	.	.	8a	.	.	.	.	.	.	.	.	.	.	.
8FJ	.	.	.	.	.	.	.	.	8ccJ)	.	.	.	.	.	.	.	.	.	.	.
8FL	.	.	.	.	8aL	-mi-	.	.	(>8ccL	.	8aaL	.	.	.	.	.	.	.	.	.
8F	.	.	.	.	8gJ	.	.	.	8b-XJ)	.	8gg	.	.	.	.	.	.	.	.	.
8F	.	.	.	.	8b-XL	-ne	.	.	(>8ddL	.	8bb-X	.	.	.	.	.	.	.	.	.
8FJ	.	.	.	.	8aJ	.	.	.	8ccJ)	.	8aaJ	.	.	.	.	.	.	.	.	.
!LO:LB:g=original	!	!	!	!	!LO:LB:g=original	!	!	!	!	!	!	!	!	!	!	!	!	!	!	!
=43	=43	=43	=43	=43	=43	=43	=43	=43	=43	=43	=43	=43	=43	=43	=43	=43	=43	=43	=43	=43
8FL	.	.	1r	.	(>4a	De-	1r	.	4cc	???	(>4aa	.	1r	.	1r	.	1r	.	1r	.
8F	.	.	.	.	.	.	.	.	.	.	.	.	.	.	.	.	.	.	.	.
8F	.	.	.	.	4g)	.	.	.	4b-X	.	4gg)	.	.	.	.	.	.	.	.	.
8FJ	.	.	.	.	.	.	.	.	.	.	.	.	.	.	.	.	.	.	.	.
8FL	.	.	.	.	2f	-us	.	.	8aL	.	2ff	.	.	.	.	.	.	.	.	.
8F	.	.	.	.	.	.	.	.	8cc	.	.	.	.	.	.	.	.	.	.	.
8F	.	.	.	.	.	.	.	.	8a	.	.	.	.	.	.	.	.	.	.	.
8FJ	.	.	.	.	.	.	.	.	8ccJ	.	.	.	.	.	.	.	.	.	.	.
!	!	!	!	!	!	!	!	!	!LO:LB:g=original	!	!	!	!	!	!	!	!	!	!	!
=44	=44	=44	=44	=44	=44	=44	=44	=44	=44	=44	=44	=44	=44	=44	=44	=44	=44	=44	=44	=44
!!pagebreak:original
!	!	!	!LO:TX:a:t=Solo	!	!	!	!	!	!	!	!	!	!	!	!	!	!	!	!	!
8FL	.	.	2F	A-	(>2a	A-	1r	.	8ffL	.	2aa	.	1r	.	1r	.	1r	.	1r	.
8F	.	.	.	.	.	.	.	.	8cc	.	.	.	.	.	.	.	.	.	.	.
8F	.	.	.	.	.	.	.	.	8ff	.	.	.	.	.	.	.	.	.	.	.
8FJ	.	.	.	.	.	.	.	.	8ccJ	.	.	.	.	.	.	.	.	.	.	.
8FL	.	.	8AL	.	8ccL)	.	.	.	(>8aaL	.	(>8cccL	.	.	.	.	.	.	.	.	.
8F	.	.	8GJ	.	8b-XJ	.	.	.	8gg)	.	8bb-X)	.	.	.	.	.	.	.	.	.
8F	.	.	8B-XL	-gnus	8ddL	-gnus	.	.	(>8bb-X	.	(>8ddd	.	.	.	.	.	.	.	.	.
8FJ	.	.	8AJ	.	8ccJ	.	.	.	8aaJ)	.	8cccJ)	.	.	.	.	.	.	.	.	.
!	!	!	!	!	!	!	!	!	!	!	!LO:LB:g=original	!	!	!	!	!	!	!	!	!
=45	=45	=45	=45	=45	=45	=45	=45	=45	=45	=45	=45	=45	=45	=45	=45	=45	=45	=45	=45	=45
8FL	.	.	4A	De-	(>4cc	De-	1r	.	4aa	.	(>4ccc	.	1r	.	1r	.	1r	.	1r	.
8F	.	.	.	.	.	.	.	.	.	.	.	.	.	.	.	.	.	.	.	.
8F	.	.	4G	.	4b-X)	.	.	.	4gg	.	4bb-X)	.	.	.	.	.	.	.	.	.
8FJ	.	.	.	.	.	.	.	.	.	.	.	.	.	.	.	.	.	.	.	.
*Xtremolo	*	*	*	*	*	*	*	*	*tremolo	*	*	*	*	*	*	*	*	*	*	*
8FFL/	.	.	2F	-i	2a	-i	.	.	8aL 8ff	.	2aa	.	.	.	.	.	.	.	.	.
8F\	.	.	.	.	.	.	.	.	8a 8ff	.	.	.	.	.	.	.	.	.	.	.
8FF/	.	.	.	.	.	.	.	.	8a 8ff	.	.	.	.	.	.	.	.	.	.	.
8FJ\	.	.	.	.	.	.	.	.	8aJ 8ff	.	.	.	.	.	.	.	.	.	.	.
*tremolo	*	*	*	*	*	*	*	*	*Xtremolo	*	*	*	*	*	*	*	*	*	*	*
=46	=46	=46	=46	=46	=46	=46	=46	=46	=46	=46	=46	=46	=46	=46	=46	=46	=46	=46	=46	=46
8CL	.	.	1r	.	1r	.	1r	.	8gL	.	(>8ggL	.	1r	.	1r	.	1r	.	1r	.
8C	.	.	.	.	.	.	.	.	8a	.	8aa	.	.	.	.	.	.	.	.	.
8C	.	.	.	.	.	.	.	.	8b-X	.	8bb-X	.	.	.	.	.	.	.	.	.
8CJ	.	.	.	.	.	.	.	.	8aJ	.	8aaJ)	.	.	.	.	.	.	.	.	.
*Xtremolo	*	*	*	*	*	*	*	*	*	*	*	*	*	*	*	*	*	*	*	*
8CL	.	.	.	.	.	.	.	.	8gL	.	(>8ggL	.	.	.	.	.	.	.	.	.
8CJ	.	.	.	.	.	.	.	.	8f	.	8ff	.	.	.	.	.	.	.	.	.
8EL	.	.	.	.	.	.	.	.	8e	.	8ee	.	.	.	.	.	.	.	.	.
8GJ	.	.	.	.	.	.	.	.	8dJ	.	8ddJ)	.	.	.	.	.	.	.	.	.
=47	=47	=47	=47	=47	=47	=47	=47	=47	=47	=47	=47	=47	=47	=47	=47	=47	=47	=47	=47	=47
8c'L	.	.	8cL	fi-	8ccL	fi-	8ccL	fi-	8cL	.	(>8ccL	.	1r	.	1r	.	1r	.	1r	.
8Bn'	.	.	8BnJ	.	8bnJ	.	8bJ	.	8Bn	.	8bn	.	.	.	.	.	.	.	.	.
8c'	.	.	8cL	-li-	8ccL	-li-	8ccL	-li-	8c	.	8cc	.	.	.	.	.	.	.	.	.
8B'J	.	.	8BJ	.	8bJ	.	8bJ	.	8BJ	.	8bJ)	.	.	.	.	.	.	.	.	.
*tremolo	*	*	*	*	*	*	*	*	*	*	*	*	*	*	*	*	*	*	*	*
8cL	.	.	2c	-us	2cc	-us	2cc	-us	2c	.	2cc	.	.	.	.	.	.	.	.	.
8c	.	.	.	.	.	.	.	.	.	.	.	.	.	.	.	.	.	.	.	.
8c	.	.	.	.	.	.	.	.	.	.	.	.	.	.	.	.	.	.	.	.
8cJ	.	.	.	.	.	.	.	.	.	.	.	.	.	.	.	.	.	.	.	.
!	!	!	!LO:LB:g=original	!	!	!	!	!	!	!	!	!	!	!	!	!	!	!	!	!
=48	=48	=48	=48	=48	=48	=48	=48	=48	=48	=48	=48	=48	=48	=48	=48	=48	=48	=48	=48	=48
8FL	.	.	1r	.	1r	.	1r	.	8aL	.	(>8aaL	.	1r	.	1r	.	1r	.	1r	.
8F	.	.	.	.	.	.	.	.	8b-X	.	8bb-X	.	.	.	.	.	.	.	.	.
8F	.	.	.	.	.	.	.	.	8cc	.	8ccc	.	.	.	.	.	.	.	.	.
8FJ	.	.	.	.	.	.	.	.	8b-J	.	8bb-J)	.	.	.	.	.	.	.	.	.
8FL	.	.	.	.	.	.	.	.	8aL	.	8aaL	.	.	.	.	.	.	.	.	.
8F	.	.	.	.	.	.	.	.	8g	.	8gg	.	.	.	.	.	.	.	.	.
8F	.	.	.	.	.	.	.	.	8f	.	8ff	.	.	.	.	.	.	.	.	.
8CJ	.	.	.	.	.	.	.	.	8eJ	.	8eeJ	.	.	.	.	.	.	.	.	.
!LO:LB:g=original	!	!	!	!	!LO:LB:g=original	!	!	!	!LO:LB:g=original	!	!	!	!	!	!	!	!	!	!	!
*Xtremolo	*	*	*	*	*	*	*	*	*	*	*	*	*	*	*	*	*	*	*	*
=49	=49	=49	=49	=49	=49	=49	=49	=49	=49	=49	=49	=49	=49	=49	=49	=49	=49	=49	=49	=49
8FL	.	.	8FL	Pa-	8fL	Pa-	8ffL	Pa-	8aL	.	(>8ffL	.	1r	.	1r	.	1r	.	1r	.
8E	.	.	8E	.	8e	.	8ee	.	8g	.	8ee	.	.	.	.	.	.	.	.	.
8F	.	.	8F	.	8f	.	8ff	.	8a	.	8ff	.	.	.	.	.	.	.	.	.
8EJ	.	.	8EJ	.	8eJ	.	8eeJ	.	8gJ	.	8eeJ)	.	.	.	.	.	.	.	.	.
*	*	*	*	*	*	*	*	*	*tremolo	*	*	*	*	*	*	*	*	*	*	*
8FL	.	.	2F	-tris	2f	-tris	2ff	-tris	8fL 8a	.	2ff	.	.	.	.	.	.	.	.	.
8CJ	.	.	.	.	.	.	.	.	8f 8a	.	.	.	.	.	.	.	.	.	.	.
8AAL	.	.	.	.	.	.	.	.	8f 8a	.	.	.	.	.	.	.	.	.	.	.
8CJ	.	.	.	.	.	.	.	.	8fJ 8a	.	.	.	.	.	.	.	.	.	.	.
*tremolo	*	*	*	*	*	*	*	*	*Xtremolo	*	*	*	*	*	*	*	*	*	*	*
!	!	!	!	!	!	!	!	!	!	!	!LO:LB:g=original	!	!	!	!LO:LB:g=original	!	!	!	!	!
=50	=50	=50	=50	=50	=50	=50	=50	=50	=50	=50	=50	=50	=50	=50	=50	=50	=50	=50	=50	=50
!LO:TX:a:t=Tutti	!	!	!	!	!	!	!	!	!	!	!	!	!	!	!	!	!	!	!	!
8FL	.	.	4F	fi-	4cc	fi-	8ffL	fi-	(>8aL	f	(>8ffL	f	4r	.	4r	.	4r	.	4r	.
8F	.	.	.	.	.	.	8ccJ	.	8cc)	.	8cc	.	.	.	.	.	.	.	.	.
8F	.	.	8F	-li-	8cc	-li-	8ff	-li-	(>8a	.	8ff)(	.	8r	.	8r	.	8r	.	8r	.
8FJ	.	.	8F	-us	8cc	-us	8aa	-us	8ccJ)	.	8aaJ)	.	8ff	.	8aa	.	8ff	.	8aa	.
8cL	.	.	4c	Pa-	4cc	Pa-	8aaL	Pa-	(<8gL	.	(>8aaL	.	8ffL	.	8aaL	.	8ffL	.	8aaL	.
8c	.	.	.	.	.	.	8ggJ	.	8cc)	.	8ggJ	.	8eeJ	.	8ggJ	.	8eeJ	.	8ggJ	.
8c	.	.	4c	-tris	4cc	-tris	4gg	-tris	(<8g	.	4gg)	.	4ee	.	4gg	.	4ee	.	4gg	.
8cJ	.	.	.	.	.	.	.	.	8ccJ)	.	.	.	.	.	.	.	.	.	.	.
!	!	!	!	!	!	!	!	!	!	!	!	!	!	!	!	!	!LO:LB:g=original	!	!	!
=51	=51	=51	=51	=51	=51	=51	=51	=51	=51	=51	=51	=51	=51	=51	=51	=51	=51	=51	=51	=51
8BnL	.	.	4Bn	fi-	4g	fi-	8bL	fi-	8G 8g	.	8bnL	.	4r	.	4r	.	4r	.	4r	.
8B	.	.	.	.	.	.	8ddJ	.	4G 4g	.	(8dd	.	.	.	.	.	.	.	.	.
8B	.	.	8B	-li-	8g	-li-	8ff	-li-	.	.	8ff	.	8r	.	8r	.	8r	.	8r	.
8BJ	.	.	8B	-us	8g	-us	8gg	-us	4G 4g	.	8ggJ)	.	8ee	.	8gg	.	8b	.	8gg	.
!	!	!	!	!	!	!	!LO:LB:g=original	!	!	!	!	!	!	!	!	!	!	!	!LO:LB:g=original	!
8cL	.	.	4c	Pa-	4g	Pa-	8ffL	Pa-	.	.	8ffL	.	8ddL	.	8ffL	.	8ddL	.	8ffL	.
8c	.	.	.	.	.	.	8eeJ	.	4G 4g	.	8eeJ	.	8ccJ	.	8eeJ	.	8ccJ	.	8eeJ	.
8c	.	.	4C	-tris	4g	-tris	4ee	-tris	.	.	4ee	.	4cc	.	4ee	.	4cc	.	4ee	.
8cJ	.	.	.	.	.	.	.	.	8G 8g	.	.	.	.	.	.	.	.	.	.	.
=52	=52	=52	=52	=52	=52	=52	=52	=52	=52	=52	=52	=52	=52	=52	=52	=52	=52	=52	=52	=52
8CL	.	.	1r	.	1r	.	1r	.	(<8gL	.	(>8ggL	.	1r	.	1r	.	1r	.	1r	.
8C	.	.	.	.	.	.	.	.	8f	.	8ff#X	.	.	.	.	.	.	.	.	.
8C	.	.	.	.	.	.	.	.	8g	.	8gg)(	.	.	.	.	.	.	.	.	.
8CJ	.	.	.	.	.	.	.	.	8eJ)	.	8eeJ)	.	.	.	.	.	.	.	.	.
8FL	.	.	.	.	.	.	.	.	(<8aL	.	(>8aaL	.	.	.	.	.	.	.	.	.
8F	.	.	.	.	.	.	.	.	8g)	.	8gg#X)	.	.	.	.	.	.	.	.	.
8F	.	.	.	.	.	.	.	.	(<8a	.	(>8aa	.	.	.	.	.	.	.	.	.
8FJ	.	.	.	.	.	.	.	.	8fJ)	.	8ff#J)	.	.	.	.	.	.	.	.	.
=53	=53	=53	=53	=53	=53	=53	=53	=53	=53	=53	=53	=53	=53	=53	=53	=53	=53	=53	=53	=53
8GL	.	.	1r	.	1r	.	1r	.	8gL	.	8eeL	.	4cc	.	4ee	.	8gL	.	8eeL	.
8G	.	.	.	.	.	.	.	.	8e	.	8cc	.	.	.	.	.	8e	.	8cc	.
8G	.	.	.	.	.	.	.	.	8f	.	8dd	.	4g	.	4dd	.	8f	.	8dd	.
8GJ	.	.	.	.	.	.	.	.	8dJ	.	8bJ	.	.	.	.	.	8dJ	.	8bJ	.
*	*	*	*	*	*	*	*	*	*tremolo	*	*	*	*	*	*	*	*	*	*	*
8cL	.	.	.	.	.	.	.	.	8GL 8e	.	2cc	.	2e	.	2cc	.	2e	.	2cc	.
8G	.	.	.	.	.	.	.	.	8G 8e	.	.	.	.	.	.	.	.	.	.	.
8E	.	.	.	.	.	.	.	.	8G 8e	.	.	.	.	.	.	.	.	.	.	.
8GJ	.	.	.	.	.	.	.	.	8GJ 8e	.	.	.	.	.	.	.	.	.	.	.
*	*	*	*	*	*	*	*	*	*Xtremolo	*	*	*	*	*	*	*	*	*	*	*
!	!	!	!LO:LB:g=original	!	!	!	!	!	!	!	!	!	!LO:LB:g=original	!	!	!	!	!	!	!
=54	=54	=54	=54	=54	=54	=54	=54	=54	=54	=54	=54	=54	=54	=54	=54	=54	=54	=54	=54	=54
!!pagebreak:original
8CL	.	.	2c	qui	2e	qui	2cc	qui-	8G 8e	.	16ccLL	.	4e	.	4cc	.	2r	.	2r	.
.	.	.	.	.	.	.	.	.	.	.	16dd	.	.	.	.	.	.	.	.	.
8C	.	.	.	.	.	.	.	.	4G 4e	.	16cc	.	.	.	.	.	.	.	.	.
.	.	.	.	.	.	.	.	.	.	.	16bJJ	.	.	.	.	.	.	.	.	.
8C	.	.	.	.	.	.	.	.	.	.	8ccL	.	8eL	.	8ccL	.	.	.	.	.
8CJ	.	.	.	.	.	.	.	.	4G 4e	.	8ddJ	.	8eJ	.	8ccJ	.	.	.	.	.
8cL	.	.	4c	tol-	4e	tol-	4cc	-tol-	.	.	8eeL	.	4e	.	4cc	.	8g	.	8eeL	.
8c	.	.	.	.	.	.	.	.	4G 4e	.	8dd	.	.	.	.	.	4g	.	8dd	.
8c	.	.	8c	-lis	8e	-lis	8cc	-lis	.	.	8ee	.	4r	.	4r	.	.	.	8ee	.
8cJ	.	.	8c	pec-	8e	pec	8cc	pec-	8G 8e	.	8ccJ	.	.	.	.	.	8g	.	8ccJ	.
!	!	!	!	!	!LO:LB:g=original	!	!	!	!LO:LB:g=original	!	!LO:LB:g=original	!	!	!	!	!	!	!	!	!
=55	=55	=55	=55	=55	=55	=55	=55	=55	=55	=55	=55	=55	=55	=55	=55	=55	=55	=55	=55	=55
8BL	5_	.	2B	-ca-	2f	ca-	2dd	-ca-	8G 8f	.	16ddLL	.	4g	.	4dd	.	2r	.	2r	.
.	.	.	.	.	.	.	.	.	.	.	16ee	.	.	.	.	.	.	.	.	.
8B	.	.	.	.	.	.	.	.	4f	.	16dd	.	.	.	.	.	.	.	.	.
.	.	.	.	.	.	.	.	.	.	.	16ccJJ	.	.	.	.	.	.	.	.	.
8B	.	.	.	.	.	.	.	.	.	.	8ddL	.	8gL	.	8ddL	.	.	.	.	.
8BJ	.	.	.	.	.	.	.	.	4f	.	8eeJ	.	8gJ	.	8ddJ	.	.	.	.	.
8BL	x	.	4B	-ta	2f	-ta	2dd	-ta	.	.	8ffL	.	4g	.	4dd	.	8g	.	8ffL	.
8B	.	.	.	.	.	.	.	.	4f	.	8ee	.	.	.	.	.	4g	.	8ee	.
8B	.	.	4B	pec-	.	.	.	.	.	.	8ff	.	4r	.	4r	.	.	.	8ff	.
8BJ	.	.	.	.	.	.	.	.	8f	.	8ddJ	.	.	.	.	.	8g	.	8ddJ	.
!LO:LB:g=original	!	!	!	!	!	!	!	!	!	!	!	!	!	!	!	!	!	!	!	!
=56	=56	=56	=56	=56	=56	=56	=56	=56	=56	=56	=56	=56	=56	=56	=56	=56	=56	=56	=56	=56
8B-XL	4_ 2_	.	2B-X	-ca-	2g	pec-	2ee	pec-	8G 8g	.	16eeLL	.	1r	.	1r	.	2r	.	2r	.
.	.	.	.	.	.	.	.	.	.	.	16ff	.	.	.	.	.	.	.	.	.
8B-	.	.	.	.	.	.	.	.	4g	.	16ee	.	.	.	.	.	.	.	.	.
.	.	.	.	.	.	.	.	.	.	.	16ddJJ	.	.	.	.	.	.	.	.	.
8B-	.	.	.	.	.	.	.	.	.	.	8eeL	.	.	.	.	.	.	.	.	.
8B-J	.	.	.	.	.	.	.	.	4g	.	8ffJ	.	.	.	.	.	.	.	.	.
8B-L	x	.	2B-	-ta	4g	-ca-	4ee	-ca-	.	.	8ggL	.	.	.	.	.	8b-X	.	8ggL	.
8B-	.	.	.	.	.	.	.	.	4g	.	8ff	.	.	.	.	.	4cc	.	8ff	.
8B-	.	.	.	.	4g	-ta	4ee	-ta	.	.	8gg	.	.	.	.	.	.	.	8gg	.
8B-J	.	.	.	.	.	.	.	.	8g	.	8eeJ	.	.	.	.	.	8cc	.	8eeJ	.
!	!	!	!	!	!	!	!	!	!	!	!	!	!	!	!	!	!LO:LB:g=original	!	!	!
=57	=57	=57	=57	=57	=57	=57	=57	=57	=57	=57	=57	=57	=57	=57	=57	=57	=57	=57	=57	=57
8AL	6	.	2A	mun-	2a	mun-	2ff	mun-	8cc	.	16ffLL	.	1r	.	1r	.	2r	.	2r	.
.	.	.	.	.	.	.	.	.	.	.	16gg	.	.	.	.	.	.	.	.	.
8A	.	.	.	.	.	.	.	.	4cc	.	16ff	.	.	.	.	.	.	.	.	.
.	.	.	.	.	.	.	.	.	.	.	16eeJJ	.	.	.	.	.	.	.	.	.
8A	.	.	.	.	.	.	.	.	.	.	8ffL	.	.	.	.	.	.	.	.	.
8AJ	.	.	.	.	.	.	.	.	4cc	.	8ggJ	.	.	.	.	.	.	.	.	.
8AL	.	.	2A	-di	2a	-di	2ff	-di	.	.	8aaL	.	.	.	.	.	8ccL	.	8aaL	.
8A	.	.	.	.	.	.	.	.	4cc	.	8gg	.	.	.	.	.	8b-X	.	8gg	.
8A	.	.	.	.	.	.	.	.	.	.	8aa	.	.	.	.	.	8cc	.	8aa	.
8AJ	.	.	.	.	.	.	.	.	8cc	.	8ffJ	.	.	.	.	.	8aJ	.	8ffJ	.
=58	=58	=58	=58	=58	=58	=58	=58	=58	=58	=58	=58	=58	=58	=58	=58	=58	=58	=58	=58	=58
8EL	6	.	2E	mun-	2cc	mun-	2gg	mun-	8cc	.	16ggLL	.	1r	.	1r	.	2r	.	2r	.
.	.	.	.	.	.	.	.	.	.	.	16aa	.	.	.	.	.	.	.	.	.
8E	.	.	.	.	.	.	.	.	4cc	.	16gg	.	.	.	.	.	.	.	.	.
.	.	.	.	.	.	.	.	.	.	.	16ffJJ	.	.	.	.	.	.	.	.	.
8E	.	.	.	.	.	.	.	.	.	.	8ggL	.	.	.	.	.	.	.	.	.
8EJ	.	.	.	.	.	.	.	.	4cc	.	8aaJ	.	.	.	.	.	.	.	.	.
!	!	!	!	!	!	!	!	!	!	!	!LO:LB:g=original	!	!	!	!	!	!	!	!	!
8CL 8E	.	.	2E	-di	2cc	-di	2gg	-di	.	.	8bb-XL	.	.	.	.	.	8cc	.	8bb-XL	.
8C 8E	.	.	.	.	.	.	.	.	4cc	.	8aa	.	.	.	.	.	4cc	.	8aa	.
8C 8E	.	.	.	.	.	.	.	.	.	.	8bb-	.	.	.	.	.	.	.	8bb-	.
8CJ 8E	.	.	.	.	.	.	.	.	8cc	.	8ggJ	.	.	.	.	.	8cc	.	8ggJ	.
!	!	!	!	!	!	!	!	!	!	!	!	!	!	!	!	!	!	!	!LO:LB:g=original	!
=59	=59	=59	=59	=59	=59	=59	=59	=59	=59	=59	=59	=59	=59	=59	=59	=59	=59	=59	=59	=59
*Xtremolo	*	*	*	*	*	*	*	*	*tremolo	*	*	*	*	*	*	*	*	*	*	*
8FL	3	.	4F	mi-	4a	mi-	4aa	mi-	16ccLL	.	16aaLL	.	4cc	.	4aa	.	8cc	.	4aa	.
.	.	.	.	.	.	.	.	.	16cc	.	16aa	.	.	.	.	.	.	.	.	.
8F	.	.	.	.	.	.	.	.	16cc	.	16aa	.	.	.	.	.	4cc	.	.	.
.	.	.	.	.	.	.	.	.	16cc	.	16aaJJ	.	.	.	.	.	.	.	.	.
*	*	*	*	*	*	*	*	*	*	*	*tremolo	*	*	*	*	*	*	*	*	*
8E	3	.	4E	-se-	4g	-se-	4gg	-se-	16cc	.	16ggLL	.	2cc	.	4gg	.	.	.	4gg	.
.	.	.	.	.	.	.	.	.	16cc	.	16gg	.	.	.	.	.	.	.	.	.
8EJ	.	.	.	.	.	.	.	.	16cc	.	16gg	.	.	.	.	.	8cc	.	.	.
.	.	.	.	.	.	.	.	.	16ccJJ	.	16ggJJ	.	.	.	.	.	.	.	.	.
!	!	!	!LO:LB:g=original	!	!	!	!	!	!	!	!	!	!	!	!	!	!	!	!	!
8DL	3	.	4D/	-re-	4f	-re-	4ff	-re-	16gLL	.	16ffLL	.	.	.	4ff	.	8g	.	4ff	.
.	.	.	.	.	.	.	.	.	16g	.	16ff	.	.	.	.	.	.	.	.	.
8D	.	.	.	.	.	.	.	.	16g	.	16ff	.	.	.	.	.	4g	.	.	.
.	.	.	.	.	.	.	.	.	16g	.	16ffJJ	.	.	.	.	.	.	.	.	.
8C	3	.	4C	-re	4e	-re	4ee	-re	16g	.	16eeLL	.	4cc	.	4ee	.	.	.	4ee	.
.	.	.	.	.	.	.	.	.	16g	.	16ee	.	.	.	.	.	.	.	.	.
8CJ	.	.	.	.	.	.	.	.	16g	.	16ee	.	.	.	.	.	8g	.	.	.
.	.	.	.	.	.	.	.	.	16gJJ	.	16eeJJ	.	.	.	.	.	.	.	.	.
*	*	*	*	*	*	*	*	*	*	*	*Xtremolo	*	*	*	*	*	*	*	*	*
!	!	!	!	!	!	!	!LO:LB:g=original	!	!	!	!	!	!	!	!LO:LB:g=original	!	!	!	!	!
=60	=60	=60	=60	=60	=60	=60	=60	=60	=60	=60	=60	=60	=60	=60	=60	=60	=60	=60	=60	=60
8F'L	.	.	4f	mi-	4f	mi-	4ff	mi-	16fLL	.	(>16ffLL	.	4dd	.	4ff	.	4f	.	4ee	.
.	.	.	.	.	.	.	.	.	16f	.	16gg)	.	.	.	.	.	.	.	.	.
8F'	.	.	.	.	.	.	.	.	16f	.	16ff	.	.	.	.	.	.	.	.	.
.	.	.	.	.	.	.	.	.	16fJJ	.	16ggJJ	.	.	.	.	.	.	.	.	.
8E'	.	.	4e	-se-	4e	-se-	4ee	-se-	16eLL	.	(>16eeLL	.	4r	.	4r	.	4e	.	4ee	.
.	.	.	.	.	.	.	.	.	16e	.	16ff)	.	.	.	.	.	.	.	.	.
8E'J	.	.	.	.	.	.	.	.	16e	.	(>16ee	.	.	.	.	.	.	.	.	.
.	.	.	.	.	.	.	.	.	16eJJ	.	16ffJJ)	.	.	.	.	.	.	.	.	.
8D'L\	.	.	4d	-re-	4d	-re-	4dd	-re-	16dLL	.	(>16ddLL	.	2r	.	2r	.	4d	.	4dd	.
.	.	.	.	.	.	.	.	.	16d	.	16ee)	.	.	.	.	.	.	.	.	.
8D'	.	.	.	.	.	.	.	.	16d	.	(>16dd	.	.	.	.	.	.	.	.	.
.	.	.	.	.	.	.	.	.	16dJJ	.	16eeJJ)	.	.	.	.	.	.	.	.	.
8C'	.	.	4c	-re	4c	-re	4cc	-re	16cLL	.	8cc`L	.	.	.	.	.	4c	.	4cc	.
.	.	.	.	.	.	.	.	.	16c	.	.	.	.	.	.	.	.	.	.	.
8C'J	.	.	.	.	.	.	.	.	16c	.	8cc`J	.	.	.	.	.	.	.	.	.
.	.	.	.	.	.	.	.	.	16cJJ	.	.	.	.	.	.	.	.	.	.	.
=61	=61	=61	=61	=61	=61	=61	=61	=61	=61	=61	=61	=61	=61	=61	=61	=61	=61	=61	=61	=61
4G'	.	.	2G	no-	2g	no-	2gg	no-	4g	.	4gg	.	4g	.	4g	.	4g	.	4gg	.
8F#X'L	.	.	.	.	.	.	.	.	8f#XL	.	16ff#XLL	.	8GL	.	8gL	.	8f#XL	.	8ff#XL	.
.	.	.	.	.	.	.	.	.	.	.	16gg	.	.	.	.	.	.	.	.	.
8G'J	.	.	.	.	.	.	.	.	8gJ	.	16ff#	.	8GJ	.	8gJ	.	8gJ	.	8ggJ	.
.	.	.	.	.	.	.	.	.	.	.	16ggJJ	.	.	.	.	.	.	.	.	.
2GG'	.	.	2G	-bis	2g	-bis	2g/	-bis	2G 2g	.	2g	.	2G	.	2g	.	2g	.	2g	.
!	!	!	!	!	!LO:LB:g=original	!	!	!	!LO:LB:g=original	!	!LO:LB:g=original	!	!	!	!	!	!LO:LB:g=original	!	!	!
=62	=62	=62	=62	=62	=62	=62	=62	=62	=62	=62	=62	=62	=62	=62	=62	=62	=62	=62	=62	=62
!LO:TX:a:t=Solo	!	!	!	!	!	!	!	!	!	!	!	!	!	!	!	!	!	!	!	!
8GGL/	.	p	2G	sus-	2g	sus-	2b	sus-	(<2g	p	2b	p	1r	.	1r	.	1r	.	1r	.
8G\	.	.	.	.	.	.	.	.	.	.	.	.	.	.	.	.	.	.	.	.
8GG/	.	.	.	.	.	.	.	.	.	.	.	.	.	.	.	.	.	.	.	.
8GJ\	.	.	.	.	.	.	.	.	.	.	.	.	.	.	.	.	.	.	.	.
*tremolo	*	*	*	*	*	*	*	*	*	*	*	*	*	*	*	*	*	*	*	*
8GGL	.	.	4G	-ci-	4g	-ci-	4b	-ci-	8gL)	.	8bL	.	.	.	.	.	.	.	.	.
8GG	.	.	.	.	.	.	.	.	(<8f#X	.	8a	.	.	.	.	.	.	.	.	.
8GG	.	.	4G	-pe	4g	-pe	4cc	-pe	8a	.	8cc	.	.	.	.	.	.	.	.	.
8GGJ	.	.	.	.	.	.	.	.	8gJ)	.	8bJ	.	.	.	.	.	.	.	.	.
!LO:LB:g=original	!	!	!	!	!	!	!	!	!	!	!	!	!	!	!	!	!	!	!	!
=63	=63	=63	=63	=63	=63	=63	=63	=63	=63	=63	=63	=63	=63	=63	=63	=63	=63	=63	=63	=63
8GL	.	.	2G	de-	2b	de-	2dd	de-	2d 2b	.	2dd	.	1r	.	1r	.	1r	.	1r	.
8G	.	.	.	.	.	.	.	.	.	.	.	.	.	.	.	.	.	.	.	.
8G	.	.	.	.	.	.	.	.	.	.	.	.	.	.	.	.	.	.	.	.
8GJ	.	.	.	.	.	.	.	.	.	.	.	.	.	.	.	.	.	.	.	.
8GL	.	.	2G	-pre-	2g	-pre	(>4b	-pre-	4g	.	4b	.	.	.	.	.	.	.	.	.
8G	.	.	.	.	.	.	.	.	.	.	.	.	.	.	.	.	.	.	.	.
8G	.	.	.	.	.	.	4gg)	.	4dd	.	4gg	.	.	.	.	.	.	.	.	.
8GJ	.	.	.	.	.	.	.	.	.	.	.	.	.	.	.	.	.	.	.	.
=64	=64	=64	=64	=64	=64	=64	=64	=64	=64	=64	=64	=64	=64	=64	=64	=64	=64	=64	=64	=64
8GL	.	.	2G	-ca-	2b	ca-	2dd	-ca-	2d 2b	.	2dd	.	1r	.	1r	.	1r	.	1r	.
8G	.	.	.	.	.	.	.	.	.	.	.	.	.	.	.	.	.	.	.	.
8G	.	.	.	.	.	.	.	.	.	.	.	.	.	.	.	.	.	.	.	.
8GJ	.	.	.	.	.	.	.	.	.	.	.	.	.	.	.	.	.	.	.	.
*Xtremolo	*	*	*	*	*	*	*	*	*	*	*	*	*	*	*	*	*	*	*	*
8GL	.	.	2G	-ti-	2g	-ti-	(>4b	-ti-	4g	.	4b	.	.	.	.	.	.	.	.	.
8GJ	.	.	.	.	.	.	.	.	.	.	.	.	.	.	.	.	.	.	.	.
4g'	.	.	.	.	.	.	4gg)	.	4d 4b	.	4gg	.	.	.	.	.	.	.	.	.
!	!	!	!LO:LB:g=original	!	!	!	!	!	!	!	!	!	!	!	!	!	!	!	!	!
=65	=65	=65	=65	=65	=65	=65	=65	=65	=65	=65	=65	=65	=65	=65	=65	=65	=65	=65	=65	=65
4e'	.	.	4e	-o-	4cc	-o-	4ee	-o-	4ee	.	4ee	.	1r	.	1r	.	1r	.	1r	.
8e'L	.	.	8eL	-nem	8eeL	.	8eeL	.	8eeL	.	8eeL	.	.	.	.	.	.	.	.	.
8d'J	.	.	8dJ	.	8ddJ	.	8ddJ	.	8ddJ	.	8ddJ	.	.	.	.	.	.	.	.	.
4c'	.	.	4c	nos-	4cc	.	4cc	.	4cc	.	4cc	.	.	.	.	.	.	.	.	.
8c'L	.	.	8cL	.	8ccL	-nem	8ccL	-nem	8ccL	.	8ccL	.	.	.	.	.	.	.	.	.
8B'J	.	.	8BJ	.	8bJ	.	8bJ	.	8bJ	.	8bJ	.	.	.	.	.	.	.	.	.
!	!	!	!	!	!	!	!LO:LB:g=original	!	!	!	!	!	!	!	!	!	!	!	!	!
=66	=66	=66	=66	=66	=66	=66	=66	=66	=66	=66	=66	=66	=66	=66	=66	=66	=66	=66	=66	=66
8A'L	.	.	8AL	.	8aL	nos-	8aL	nos-	8aL	.	8aL	.	1r	.	1r	.	1r	.	1r	.
8G'	.	.	8G	.	8g	.	8g	.	8g	.	8g	.	.	.	.	.	.	.	.	.
8F#X'	.	.	8F#X	.	8f#X	.	8f#X	.	8f#X	.	8f#X	.	.	.	.	.	.	.	.	.
8E'J	.	.	8EJ	.	8eJ	.	8eJ	.	8eJ	.	8eJ	.	.	.	.	.	.	.	.	.
2D'	.	.	2D/	-tram	2d	-tram	2d	-tram	2d	.	2d	.	.	.	.	.	.	.	.	.
=67	=67	=67	=67	=67	=67	=67	=67	=67	=67	=67	=67	=67	=67	=67	=67	=67	=67	=67	=67	=67
*tremolo	*	*	*	*	*	*	*	*	*	*	*	*	*	*	*	*	*	*	*	*
8GL	.	.	1G	qui	2g	qui-	2b	qui-	8gL	.	(>8bL\	.	1r	.	1r	.	1r	.	1r	.
8G	.	.	.	.	.	.	.	.	8d	.	8a	.	.	.	.	.	.	.	.	.
8G	.	.	.	.	.	.	.	.	8B	.	8g	.	.	.	.	.	.	.	.	.
8GJ	.	.	.	.	.	.	.	.	8dJ	.	8aJ)	.	.	.	.	.	.	.	.	.
8GL	.	.	.	.	(>8gL	.	8bL	.	8gL	.	8bL	.	.	.	.	.	.	.	.	.
8G	.	.	.	.	8f#X	.	8a	.	8f#X	.	8a	.	.	.	.	.	.	.	.	.
8G	.	.	.	.	8g	.	8b	.	8g	.	8b	.	.	.	.	.	.	.	.	.
8GJ	.	.	.	.	8aJ)	.	8ccJ	.	8aJ	.	8ccJ	.	.	.	.	.	.	.	.	.
*Xtremolo	*	*	*	*	*	*	*	*	*	*	*	*	*	*	*	*	*	*	*	*
!	!	!	!	!	!LO:LB:g=original	!	!	!	!	!	!LO:LB:g=original	!	!	!	!	!	!	!	!	!
=68	=68	=68	=68	=68	=68	=68	=68	=68	=68	=68	=68	=68	=68	=68	=68	=68	=68	=68	=68	=68
8GGL/	.	.	2G	se-	2b	-se-	2dd	-se-	2d 2b	.	2dd	.	1r	.	1r	.	1r	.	1r	.
8G\	.	.	.	.	.	.	.	.	.	.	.	.	.	.	.	.	.	.	.	.
8GG/	.	.	.	.	.	.	.	.	.	.	.	.	.	.	.	.	.	.	.	.
8GJ\	.	.	.	.	.	.	.	.	.	.	.	.	.	.	.	.	.	.	.	.
*tremolo	*	*	*	*	*	*	*	*	*	*	*	*	*	*	*	*	*	*	*	*
8GGL	.	.	4G	-des	4g	-des	4b	-des	4g	.	4b	.	.	.	.	.	.	.	.	.
8GG	.	.	.	.	.	.	.	.	.	.	.	.	.	.	.	.	.	.	.	.
.	.	.	.	.	.	.	.	.	.	.	8qqff#X/	.	.	.	.	.	.	.	.	.
8GG	.	.	4G	ad	4b	ad	4gg	ad	4d 4b	.	4gg	.	.	.	.	.	.	.	.	.
8GGJ	.	.	.	.	.	.	.	.	.	.	.	.	.	.	.	.	.	.	.	.
*Xtremolo	*	*	*	*	*	*	*	*	*	*	*	*	*	*	*	*	*	*	*	*
!LO:LB:g=original	!	!	!	!	!	!	!	!	!	!	!	!	!	!	!	!	!	!	!	!
=69	=69	=69	=69	=69	=69	=69	=69	=69	=69	=69	=69	=69	=69	=69	=69	=69	=69	=69	=69	=69
8GGL/	.	.	4G	dex-	8bL	dex-	8ddL	dex-	8bL	.	8ddL	.	1r	.	1r	.	1r	.	1r	.
8G\	.	.	.	.	8ccJ	.	8eeJ	.	8cc	.	(>8ee	.	.	.	.	.	.	.	.	.
8G\	.	.	4G	-te-	8bL	-te-	8ddL	-te-	8b	.	8dd	.	.	.	.	.	.	.	.	.
8GJ\	.	.	.	.	8aJ	.	8ccJ	.	8aJ	.	8ccJ)	.	.	.	.	.	.	.	.	.
*tremolo	*	*	*	*	*	*	*	*	*	*	*	*	*	*	*	*	*	*	*	*
8GL	.	.	2G	-ram	(>4g	-ram	(>4b	-ram	4g	.	4b	.	.	.	.	.	.	.	.	.
8G	.	.	.	.	.	.	.	.	.	.	.	.	.	.	.	.	.	.	.	.
8G	.	.	.	.	4dd)	.	4gg)	.	4d 4b	.	4gg	.	.	.	.	.	.	.	.	.
8GJ	.	.	.	.	.	.	.	.	.	.	.	.	.	.	.	.	.	.	.	.
*Xtremolo	*	*	*	*	*	*	*	*	*	*	*	*	*	*	*	*	*	*	*	*
=70	=70	=70	=70	=70	=70	=70	=70	=70	=70	=70	=70	=70	=70	=70	=70	=70	=70	=70	=70	=70
8GGL/	.	.	2G	Pa-	2b	Pa-	2dd	Pa-	8dL 8b	.	2dd	.	1r	.	1r	.	1r	.	1r	.
8G\	.	.	.	.	.	.	.	.	8d 8b	.	.	.	.	.	.	.	.	.	.	.
8GG/	.	.	.	.	.	.	.	.	8d 8b	.	.	.	.	.	.	.	.	.	.	.
8GJ\	.	.	.	.	.	.	.	.	8dJ 8b	.	.	.	.	.	.	.	.	.	.	.
!LO:TX:a:t=Tutti	!	!	!	!	!	!	!	!	!	!	!	!	!	!	!	!	!	!	!	!
8GGL/	.	.	4G	-tris	4g	-tris	4b	-tris	4g	.	4b	.	.	.	.	.	.	.	.	.
8GJ\	.	.	.	.	.	.	.	.	.	.	.	.	.	.	.	.	.	.	.	.
4g'	.	f	4G	om-	4g	om-	4gg	om-	4gg	.	4gg	.	.	.	.	.	.	.	.	.
*	*	*	*	*	*	*	*	*	*Xtremolo	*	*	*	*	*	*	*	*	*	*	*
!	!	!	!LO:PB:g=original	!	!	!	!LO:LB:g=original	!	!	!	!	!	!	!	!	!	!	!	!	!
=71	=71	=71	=71	=71	=71	=71	=71	=71	=71	=71	=71	=71	=71	=71	=71	=71	=71	=71	=71	=71
4e'	.	.	4e	-ni-	4e	-ni-	4ee	-ni-	4ee	f	4ee	f	1r	.	1r	.	1r	.	1r	.
4d'	.	.	4c	-po-	4cc	-po-	4cc	-po-	12ccL	.	12ccL	.	.	.	.	.	.	.	.	.
.	.	.	.	.	.	.	.	.	12b	.	12b	.	.	.	.	.	.	.	.	.
.	.	.	.	.	.	.	.	.	12ccJ	.	12ccJ	.	.	.	.	.	.	.	.	.
4A'	.	.	(>4A	-ten-	4a	-ten-	(>4a	-ten-	4a	.	4a	.	.	.	.	.	.	.	.	.
4d'	.	.	4d)	.	4dd	.	4dd)	.	4dd	.	4dd	.	.	.	.	.	.	.	.	.
=72	=72	=72	=72	=72	=72	=72	=72	=72	=72	=72	=72	=72	=72	=72	=72	=72	=72	=72	=72	=72
*tremolo	*	*	*	*	*	*	*	*	*tremolo	*	*	*	*	*	*	*	*	*	*	*
8GL	.	.	2G	-tis	2g	-tis.	2g/	-tis	8dL 8b	.	2g	.	2.g	f	2.g	f	2G	f	2g	f
8G	.	.	.	.	.	.	.	.	8d 8b	.	.	.	.	.	.	.	.	.	.	.
8G	.	.	.	.	.	.	.	.	8d 8b	.	.	.	.	.	.	.	.	.	.	.
8GJ	.	.	.	.	.	.	.	.	8dJ 8b	.	.	.	.	.	.	.	.	.	.	.
8GL	.	.	2r	.	2r	.	2r	.	8dL 8b	.	8bL	.	.	.	.	.	4B	.	4b/	.
8G	.	.	.	.	.	.	.	.	8d 8b	.	8g	.	.	.	.	.	.	.	.	.
8G	.	.	.	.	.	.	.	.	8d 8b	.	8b	.	4dd	.	4dd	.	4d	.	4dd	.
8GJ	.	.	.	.	.	.	.	.	8dJ 8b	.	8ddJ	.	.	.	.	.	.	.	.	.
*Xtremolo	*	*	*	*	*	*	*	*	*	*	*	*	*	*	*	*	*	*	*	*
=73	=73	=73	=73	=73	=73	=73	=73	=73	=73	=73	=73	=73	=73	=73	=73	=73	=73	=73	=73	=73
!	!	!	!	!	!	!	!	!	!	!	!LO:TX:a:t=Problem: repetycja 1 takt	!	!	!	!	!	!	!	!	!
8GL	.	.	1r	.	1r	.	1r	.	8dL 8b	.	2gg	.	2.g	.	2.gg	.	(<2g	???	(>2gg	???
8G	.	.	.	.	.	.	.	.	8d 8b	.	.	.	.	.	.	.	.	.	.	.
8B	.	.	.	.	.	.	.	.	8d 8b	.	.	.	.	.	.	.	.	.	.	.
8BJ	.	.	.	.	.	.	.	.	8dJ 8b	.	.	.	.	.	.	.	.	.	.	.
8dL\	#	.	.	.	.	.	.	.	8dL 8cc	.	8ggL	.	.	.	.	.	8gL	.	8ggL	.
8d\	.	.	.	.	.	.	.	.	8d 8cc	.	8aa	.	.	.	.	.	8a)	.	8aa)	.
8D/	.	.	.	.	.	.	.	.	8d 8cc	.	8ff#X	.	4dd	.	4dd	.	8f#X	.	8ff#X	.
8DJ/	.	.	.	.	.	.	.	.	8dJ 8cc	.	8ddJ	.	.	.	.	.	8dJ	.	8ddJ	.
!LO:LB:g=original	!	!	!	!	!	!	!	!	!	!	!	!	!	!	!	!	!	!	!	!
=74	=74	=74	=74	=74	=74	=74	=74	=74	=74	=74	=74	=74	=74	=74	=74	=74	=74	=74	=74	=74
8GL	.	.	1r	.	1r	.	1r	.	8d 8b	.	2gg	.	2.g	.	2.gg	.	(<2g	.	2gg	.
8G	.	.	.	.	.	.	.	.	4d 4b	.	.	.	.	.	.	.	.	.	.	.
8B	.	.	.	.	.	.	.	.	.	.	.	.	.	.	.	.	.	.	.	.
8BJ	.	.	.	.	.	.	.	.	8d 8b	.	.	.	.	.	.	.	.	.	.	.
!	!	!	!	!	!	!	!	!	!	!	!	!	!	!	!	!	!	!	!LO:LB:g=original	!
8dL\	.	.	.	.	.	.	.	.	8d 8cc	.	8ggL	.	.	.	.	.	8gL)	.	8ggL	.
8d\	.	.	.	.	.	.	.	.	4d 4cc	.	8aa	.	.	.	.	.	8a	.	8aa	.
8D/	#	.	.	.	.	.	.	.	.	.	8ff#X	.	4dd	.	4dd	.	8f#X	.	8ff#X	.
8DJ/	.	.	.	.	.	.	.	.	8d 8cc	.	8ddJ	.	.	.	.	.	8dJ	.	8ddJ	.
!	!	!	!	!	!	!	!	!	!LO:PB:g=original	!	!LO:LB:g=original	!	!	!	!	!	!	!	!	!
=75	=75	=75	=75	=75	=75	=75	=75	=75	=75	=75	=75	=75	=75	=75	=75	=75	=75	=75	=75	=75
4G	.	.	1r	.	1r	.	1r	.	(<8gL	.	8ggL	.	2g	.	4gg	.	4g	.	4gg	.
.	.	.	.	.	.	.	.	.	8a	.	8aa	.	.	.	.	.	.	.	.	.
8Fn'L	.	.	.	.	.	.	.	.	8fn	.	8ffn	.	.	.	4ff	.	4dd	.	4ffn	.
8G'J	.	.	.	.	.	.	.	.	8gJ)	.	8ggJ	.	.	.	.	.	.	.	.	.
8E'L	.	.	.	.	.	.	.	.	(<8eL	.	8eeL	.	4cc	.	4ee	.	4cc	.	4ee	.
8F'	.	.	.	.	.	.	.	.	8f	.	8ff	.	.	.	.	.	.	.	.	.
8D'	.	.	.	.	.	.	.	.	8d	.	8dd	.	4g	.	4dd	.	4g	.	4dd	.
8E'J	.	.	.	.	.	.	.	.	8eJ)	.	8eeJ	.	.	.	.	.	.	.	.	.
!	!	!	!	!	!	!	!	!	!	!	!	!	!LO:LB:g=original	!	!	!	!	!	!	!
=76	=76	=76	=76	=76	=76	=76	=76	=76	=76	=76	=76	=76	=76	=76	=76	=76	=76	=76	=76	=76
8CL	.	.	1r	.	1r	.	1r	.	(<8cL	.	8ccL	.	4e	.	4cc	.	4e	.	4cc	.
8E	.	.	.	.	.	.	.	.	8e	.	8ee	.	.	.	.	.	.	.	.	.
8D	.	.	.	.	.	.	.	.	8d	.	8dd	.	4g	.	4dd	.	4g	.	4dd	.
8FJ	.	.	.	.	.	.	.	.	8fJ)	.	8ffJ	.	.	.	.	.	.	.	.	.
8EL	.	.	.	.	.	.	.	.	(<8eL	.	8eeL	.	4cc	.	4ee	.	4cc	.	4ee	.
8G	.	.	.	.	.	.	.	.	8g	.	8gg	.	.	.	.	.	.	.	.	.
8F	.	.	.	.	.	.	.	.	8f	.	8ff	.	4dd	.	4ff	.	4dd	.	4ff	.
8AJ	.	.	.	.	.	.	.	.	8aJ)	.	8aaJ	.	.	.	.	.	.	.	.	.
!	!	!	!	!	!	!	!	!	!	!	!	!	!	!	!	!	!LO:LB:g=original	!	!	!
=77	=77	=77	=77	=77	=77	=77	=77	=77	=77	=77	=77	=77	=77	=77	=77	=77	=77	=77	=77	=77
4E	.	.	1r	.	1r	.	1r	.	(<8gL	.	8ggL	.	8ee	.	8ggL	.	4ee	.	4gg	.
.	.	.	.	.	.	.	.	.	8a	.	8aa	.	8r	.	8aa	.	.	.	.	.
4C	.	.	.	.	.	.	.	.	8g	.	8gg	.	8eeL	.	8gg	.	4dd	.	4ff	.
.	.	.	.	.	.	.	.	.	8fJ)	.	8ffJ	.	8ddJ	.	8ffJ	.	.	.	.	.
4G	.	.	.	.	.	.	.	.	(<8gL	.	8eeL	.	8cc	.	8eeL	.	4cc	.	4ee	.
.	.	.	.	.	.	.	.	.	8a	.	8ff	.	8r	.	8ff	.	.	.	.	.
4GG	.	.	.	.	.	.	.	.	8g	.	8ee	.	8gL	.	8ee	.	4g	.	4dd	.
.	.	.	.	.	.	.	.	.	8fJ)	.	8ddJ	.	8gJ	.	8ddJ	.	.	.	.	.
!LO:PB:g=original	!	!	!	!	!	!	!	!	!	!	!	!	!	!	!LO:LB:g=original	!	!	!	!	!
=78	=78	=78	=78	=78	=78	=78	=78	=78	=78	=78	=78	=78	=78	=78	=78	=78	=78	=78	=78	=78
!LO:TX:a:t=Solo	!	!	!	!	!	!	!	!	!	!	!	!	!	!	!	!	!	!	!	!
8CL/	.	p	1r	.	1r	.	1r	.	8GL 8e	p	2.cc	p	2e	.	2cc	.	4e	.	4cc	.
8c\	.	.	.	.	.	.	.	.	8G 8e	.	.	.	.	.	.	.	.	.	.	.
8C/	.	.	.	.	.	.	.	.	8G 8e	.	.	.	.	.	.	.	4r	.	4r	.
8cJ\	.	.	.	.	.	.	.	.	8GJ 8e	.	.	.	.	.	.	.	.	.	.	.
8CL/	.	.	.	.	.	.	.	.	8GL 8e	.	.	.	4c	.	4c	.	2r	.	2r	.
8c\	.	.	.	.	.	.	.	.	8G 8e	.	.	.	.	.	.	.	.	.	.	.
8C/	.	.	.	.	.	.	.	.	8G 8e	.	8ggL	.	4r	.	4r	.	.	.	.	.
8cJ\	.	.	.	.	.	.	.	.	8GJ 8e	.	8eeJ	.	.	.	.	.	.	.	.	.
=79	=79	=79	=79	=79	=79	=79	=79	=79	=79	=79	=79	=79	=79	=79	=79	=79	=79	=79	=79	=79
8CL/	.	.	1r	.	1r	.	1r	.	8GL 8e	.	2.cc	.	1r	.	1r	.	1r	.	1r	.
8c\	.	.	.	.	.	.	.	.	8G 8e	.	.	.	.	.	.	.	.	.	.	.
8C/	.	.	.	.	.	.	.	.	8G 8e	.	.	.	.	.	.	.	.	.	.	.
8cJ\	.	.	.	.	.	.	.	.	8GJ 8e	.	.	.	.	.	.	.	.	.	.	.
8CL/	.	.	.	.	.	.	.	.	8GL 8e	.	.	.	.	.	.	.	.	.	.	.
8c\	.	.	.	.	.	.	.	.	8G 8e	.	.	.	.	.	.	.	.	.	.	.
8C/	.	.	.	.	.	.	.	.	8G 8e	.	8eeL	.	.	.	.	.	.	.	.	.
8cJ\	.	.	.	.	.	.	.	.	8GJ 8e	.	8ggJ	.	.	.	.	.	.	.	.	.
!	!	!	!	!	!LO:LB:g=original	!	!	!	!	!	!	!	!	!	!	!	!	!	!	!
=80	=80	=80	=80	=80	=80	=80	=80	=80	=80	=80	=80	=80	=80	=80	=80	=80	=80	=80	=80	=80
!	!	!	!LO:TX:a:t=Problem: repetycja 3 takty	!	!	!	!	!	!	!	!	!	!	!	!	!	!	!	!	!
8GGL/	.	.	4G	mi-	4dd	mi-	8ffL	mi-	8dL 8b	.	8ffL	.	1r	.	1r	.	1r	.	1r	.
8G\	.	.	.	.	.	.	8ggJ	.	8d 8b	.	8gg	.	.	.	.	.	.	.	.	.
8GG/	.	.	4G	-se-	4cc	-se-	8ffL	-se-	8d 8b	.	8ff	.	.	.	.	.	.	.	.	.
8GGJ/	.	.	.	.	.	.	8eeJ	.	8dJ 8b	.	8eeJ	.	.	.	.	.	.	.	.	.
*tremolo	*	*	*	*	*	*	*	*	*Xtremolo	*	*	*	*	*	*	*	*	*	*	*
8GGL	.	.	4G	-re-	4b	-re-	4dd	-re-	8dL	.	4dd	.	.	.	.	.	.	.	.	.
8GG	.	.	.	.	.	.	.	.	8b	.	.	.	.	.	.	.	.	.	.	.
8GG	.	.	4G	-re	4b	-re	8ccL	-re	8d	.	8ccL	.	.	.	.	.	.	.	.	.
8GGJ	.	.	.	.	.	.	8ddJ	.	8bJ	.	8ddJ	.	.	.	.	.	.	.	.	.
!	!	!	!	!	!	!	!	!	!LO:LB:g=original	!	!LO:LB:g=original	!	!	!	!	!	!	!	!	!
=81	=81	=81	=81	=81	=81	=81	=81	=81	=81	=81	=81	=81	=81	=81	=81	=81	=81	=81	=81	=81
8CL	.	.	2c	no-	4cc	no-	8eeL	no-	(>8ccL	.	8eeL	.	1r	.	1r	.	1r	.	1r	.
8C	.	.	.	.	.	.	8dd	.	8b	.	8dd	.	.	.	.	.	.	.	.	.
8C	.	.	.	.	4dd	.	8ee	.	8cc	.	8ee	.	.	.	.	.	.	.	.	.
8CJ	.	.	.	.	.	.	8ffJ	.	8ddJ)	.	8ffJ	.	.	.	.	.	.	.	.	.
*Xtremolo	*	*	*	*	*	*	*	*	*	*	*	*	*	*	*	*	*	*	*	*
8CL/	.	.	2c	-bis	2ee	-bis	2gg	-bis	2cc 2ee	.	2gg	.	.	.	.	.	.	.	.	.
8c\	.	.	.	.	.	.	.	.	.	.	.	.	.	.	.	.	.	.	.	.
8C/	.	.	.	.	.	.	.	.	.	.	.	.	.	.	.	.	.	.	.	.
8cJ\	.	.	.	.	.	.	.	.	.	.	.	.	.	.	.	.	.	.	.	.
=82	=82	=82	=82	=82	=82	=82	=82	=82	=82	=82	=82	=82	=82	=82	=82	=82	=82	=82	=82	=82
*tremolo	*	*	*	*	*	*	*	*	*	*	*	*	*	*	*	*	*	*	*	*
8GL	7	.	1r	.	1r	.	1r	.	8ddL	.	8ffL	.	1r	.	1r	.	1r	.	1r	.
8G	.	.	.	.	.	.	.	.	8ee	.	8gg	.	.	.	.	.	.	.	.	.
8G	.	.	.	.	.	.	.	.	8dd	.	8ff	.	.	.	.	.	.	.	.	.
8GJ	.	.	.	.	.	.	.	.	8ccJ	.	8eeJ	.	.	.	.	.	.	.	.	.
8GL	3	.	.	.	.	.	.	.	4G 4f	.	4dd	.	.	.	.	.	.	.	.	.
8G	.	.	.	.	.	.	.	.	.	.	.	.	.	.	.	.	.	.	.	.
8G	.	.	.	.	.	.	.	.	8eL	.	8ccL	.	.	.	.	.	.	.	.	.
8GJ	.	.	.	.	.	.	.	.	8fJ	.	8ddJ	.	.	.	.	.	.	.	.	.
*Xtremolo	*	*	*	*	*	*	*	*	*	*	*	*	*	*	*	*	*	*	*	*
=83	=83	=83	=83	=83	=83	=83	=83	=83	=83	=83	=83	=83	=83	=83	=83	=83	=83	=83	=83	=83
8cL	.	.	1r	.	1r	.	1r	.	8gL	.	8eeL	.	1r	.	1r	.	1r	.	1r	.
8G	.	.	.	.	.	.	.	.	8f	.	8dd	.	.	.	.	.	.	.	.	.
8c	.	.	.	.	.	.	.	.	8g	.	8ee	.	.	.	.	.	.	.	.	.
8GJ	.	.	.	.	.	.	.	.	8fJ	.	8ddJ	.	.	.	.	.	.	.	.	.
8cL	.	.	.	.	.	.	.	.	2G 2e	.	2cc	.	.	.	.	.	.	.	.	.
8G	.	.	.	.	.	.	.	.	.	.	.	.	.	.	.	.	.	.	.	.
8E	.	.	.	.	.	.	.	.	.	.	.	.	.	.	.	.	.	.	.	.
8CJ	.	.	.	.	.	.	.	.	.	.	.	.	.	.	.	.	.	.	.	.
!LO:LB:g=original	!	!	!	!	!	!	!	!	!	!	!	!	!	!	!	!	!	!	!	!
=84	=84	=84	=84	=84	=84	=84	=84	=84	=84	=84	=84	=84	=84	=84	=84	=84	=84	=84	=84	=84
*tremolo	*	*	*	*	*	*	*	*	*	*	*	*	*	*	*	*	*	*	*	*
8GL	7	.	4G	mi-	4dd	mi-	8ffL	mi-	8ddL	.	8ffL	.	1r	.	1r	.	8g	p	(>8ffL	p
8G	.	.	.	.	.	.	8ggJ	.	8ee	.	8gg	.	.	.	.	.	4g	.	8gg	.
8G	.	.	4G	-se-	4cc	-se-	8ffL	-se-	8dd	.	8ff	.	.	.	.	.	.	.	8ff	.
8GJ	.	.	.	.	.	.	8eeJ	.	8ccJ	.	8eeJ	.	.	.	.	.	8g	.	8eeJ)	.
!	!	!	!	!	!	!	!LO:LB:g=original	!	!	!	!	!	!	!	!	!	!	!	!	!
8GL	5	.	4G	-re-	4b	-re-	4dd	-re-	4d 4b	.	4dd	.	.	.	.	.	2g	.	4dd	.
8G	.	.	.	.	.	.	.	.	.	.	.	.	.	.	.	.	.	.	.	.
8G	.	.	4G	-re	4b	-re	8ccL	-re	4d 4b	.	8ccL	.	.	.	.	.	.	.	8ccL	.
8GJ	.	.	.	.	.	.	8ddJ	.	.	.	8ddJ	.	.	.	.	.	.	.	8ddJ	.
!	!	!	!	!	!	!	!	!	!	!	!	!	!	!	!	!	!	!	!LO:LB:g=original	!
=85	=85	=85	=85	=85	=85	=85	=85	=85	=85	=85	=85	=85	=85	=85	=85	=85	=85	=85	=85	=85
8CL	.	.	2c	no-	4cc	no-	8eeL	no-	8ccL	.	8eeL	.	1r	.	1r	.	(<8eL	.	8eeL	.
8C	.	.	.	.	.	.	8ddJ	.	8b	.	8dd	.	.	.	.	.	8d	.	8dd	.
8C	.	.	.	.	4dd	.	8eeL	.	8cc	.	8ee	.	.	.	.	.	8e	.	8ee	.
8CJ	.	.	.	.	.	.	8ffJ	.	8ddJ	.	8ffJ	.	.	.	.	.	8fJ)	.	8ffJ	.
8CL	.	.	2c	-bis	2ee	-bis	2gg	-bis	2cc 2ee	.	2gg	.	.	.	.	.	2g	.	2gg	.
8C	.	.	.	.	.	.	.	.	.	.	.	.	.	.	.	.	.	.	.	.
8C	.	.	.	.	.	.	.	.	.	.	.	.	.	.	.	.	.	.	.	.
8CJ	.	.	.	.	.	.	.	.	.	.	.	.	.	.	.	.	.	.	.	.
=86	=86	=86	=86	=86	=86	=86	=86	=86	=86	=86	=86	=86	=86	=86	=86	=86	=86	=86	=86	=86
8GL	7	.	1r	.	1r	.	1r	.	8ddL	.	8ffL	.	1r	.	1r	.	8g	.	(>8ffL	.
8G	.	.	.	.	.	.	.	.	8ee	.	8gg	.	.	.	.	.	4g	.	8gg	.
8G	.	.	.	.	.	.	.	.	8dd	.	8ff	.	.	.	.	.	.	.	8ff	.
8GJ	.	.	.	.	.	.	.	.	8ccJ	.	8eeJ	.	.	.	.	.	8g	.	8eeJ)	.
8GL	5	.	.	.	.	.	.	.	4G 4f	.	4dd	.	.	.	.	.	2g	.	4dd	.
8G	.	.	.	.	.	.	.	.	.	.	.	.	.	.	.	.	.	.	.	.
8G	.	.	.	.	.	.	.	.	8GL 8e	.	8ccL	.	.	.	.	.	.	.	8ccL	.
8GJ	.	.	.	.	.	.	.	.	8fJ	.	8ddJ	.	.	.	.	.	.	.	8ddJ	.
*Xtremolo	*	*	*	*	*	*	*	*	*	*	*	*	*	*	*	*	*	*	*	*
!	!	!	!	!	!	!	!	!	!LO:LB:g=original	!	!LO:LB:g=original	!	!	!	!	!	!	!	!	!
=87	=87	=87	=87	=87	=87	=87	=87	=87	=87	=87	=87	=87	=87	=87	=87	=87	=87	=87	=87	=87
8cL	.	.	1r	.	1r	.	1r	.	8gL	.	8eeL	.	1r	.	1r	.	(<8gL	.	(>8eeL	.
8G	.	.	.	.	.	.	.	.	8f	.	8dd	.	.	.	.	.	8f	.	8dd)	.
8c	.	.	.	.	.	.	.	.	8g	.	8ee	.	.	.	.	.	8g	.	(>8ee	.
8GJ	.	.	.	.	.	.	.	.	8fJ	.	8ddJ	.	.	.	.	.	8fJ)	.	8ddJ)	.
!	!	!	!	!	!	!	!	!	!	!	!	!	!	!	!	!	!LO:LB:g=original	!	!	!
8cL	.	.	.	.	.	.	.	.	2G 2e	.	2cc	.	.	.	.	.	2e	.	2cc	.
8G	.	.	.	.	.	.	.	.	.	.	.	.	.	.	.	.	.	.	.	.
8E	.	.	.	.	.	.	.	.	.	.	.	.	.	.	.	.	.	.	.	.
8CJ	.	.	.	.	.	.	.	.	.	.	.	.	.	.	.	.	.	.	.	.
=88	=88	=88	=88	=88	=88	=88	=88	=88	=88	=88	=88	=88	=88	=88	=88	=88	=88	=88	=88	=88
!LO:TX:a:t=Tutti	!	!	!	!	!	!	!	!	!	!	!	!	!	!	!	!	!	!	!	!
2G	.	f	2G	Cum	2g	Cum	2g	Cum	2g	f	2g	???	1r	.	1r	.	2g	f	2g	f
8A'L	.	.	4A	San-	4a	San-	4a	San-	8aL	.	8aL	.	.	.	.	.	8a	.	8a	.
8G'	.	.	.	.	.	.	.	.	8g	.	8g	.	.	.	.	.	8r	.	8r	.
8A'	.	.	4B	-cto	4b	-cto	4b	-cto	8a	.	8a	.	.	.	.	.	8aL	.	8aL	.
8B'J	.	.	.	.	.	.	.	.	8bJ	.	8bJ	.	.	.	.	.	8bJ	.	8bJ	.
!	!	!	!LO:LB:g=original	!	!LO:LB:g=original	!	!	!	!	!	!	!	!	!	!	!	!	!	!	!
=89	=89	=89	=89	=89	=89	=89	=89	=89	=89	=89	=89	=89	=89	=89	=89	=89	=89	=89	=89	=89
8c'L	.	.	4c	Spi-	4cc	Spi-	4cc	Spi-	8ccL	.	8ccL	.	1r	.	1r	.	8cc	.	8cc	.
8B'	.	.	.	.	.	.	.	.	8b	.	8b	.	.	.	.	.	8r	.	8r	.
8c'	.	.	4d	-ri-	4dd	-ri-	4dd	-ri-	8cc	.	8cc	.	.	.	.	.	8ccL	.	8ccL	.
8d'J	.	.	.	.	.	.	.	.	8ddJ	.	8ddJ	.	.	.	.	.	8ddJ	.	8ddJ	.
2e'	.	.	2e	-tu	2ee	-tu	2ee	-tu	2ee	.	2ee	.	.	.	.	.	4ee	.	2ee	.
.	.	.	.	.	.	.	.	.	.	.	.	.	.	.	.	.	4g	.	.	.
!	!	!	!	!	!	!	!	!	!	!	!	!	!	!	!	!	!	!	!LO:LB:g=original	!
=90	=90	=90	=90	=90	=90	=90	=90	=90	=90	=90	=90	=90	=90	=90	=90	=90	=90	=90	=90	=90
2E'	.	.	2E	cum	2e	cum	2e	cum	2e	.	2e	.	1r	.	1r	.	2e	.	2ee	.
8F'L	.	.	4F	San-	4f	San-	4f	San-	8fL	.	8fL	.	.	.	.	.	8f	.	8ff	.
8E'	.	.	.	.	.	.	.	.	8e	.	8e	.	.	.	.	.	8r	.	8r	.
8F'	.	.	4G	-cto	4g	-cto	4g/	-cto	8f	.	8f	.	.	.	.	.	8fL	.	8ffL	.
8G'J	.	.	.	.	.	.	.	.	8gJ	.	8gJ	.	.	.	.	.	8gJ	.	8ggJ	.
!LO:LB:g=original	!	!	!	!	!	!	!	!	!	!	!	!	!	!	!	!	!	!	!	!
=91	=91	=91	=91	=91	=91	=91	=91	=91	=91	=91	=91	=91	=91	=91	=91	=91	=91	=91	=91	=91
8A'L	.	.	4A	Spi-	4a	Spi-	4a	Spi-	8aL	.	8aL	.	1r	.	1r	.	8a	.	8aa	.
8G'	.	.	.	.	.	.	.	.	8g	.	8g	.	.	.	.	.	8r	.	8r	.
8A'	.	.	4B	-ri-	4b	-ri-	4b	-ri-	8a	.	8a	.	.	.	.	.	8aL	.	8aaL	.
8B'J	.	.	.	.	.	.	.	.	8bJ	.	8bJ	.	.	.	.	.	8bJ	.	8bbJ	.
2c'	.	.	2c	-tu	4cc	-tu	4cc	-tu	4cc	.	4cc	.	.	.	.	.	2cc	.	2ccc	.
.	.	.	.	.	4cc	in	4cc	in	4cc	.	4ccc	.	.	.	.	.	.	.	.	.
!	!	!	!	!	!	!	!LO:LB:g=original	!	!	!	!	!	!	!	!	!	!LO:LB:g=original	!	!	!
=92	=92	=92	=92	=92	=92	=92	=92	=92	=92	=92	=92	=92	=92	=92	=92	=92	=92	=92	=92	=92
4c'	.	.	4c	in-	4cc	Glo-	4cc	Glo-	4cc	.	4ccc	.	1r	.	1r	.	4cc	.	4ccc	.
4B'	.	.	16B	-Glo-	8b	-ri-	8b	-ri-	4b	.	4bb	.	.	.	.	.	4b	.	4bb	.
.	.	.	16B	-ri-	.	.	.	.	.	.	.	.	.	.	.	.	.	.	.	.
.	.	.	8B	-a	8b	-a	8b	-a	.	.	.	.	.	.	.	.	.	.	.	.
4A'	.	.	4A	De-	4a	De-	4a	De-	4a	.	4aa	.	.	.	.	.	4a	.	4aa	.
4G'	.	.	4G	-i	4g	-i	4g/	-i	4g	.	4gg	.	.	.	.	.	4g	.	4gg	.
*	*	*	*	*	*	*	*	*	*Xtremolo	*	*	*	*	*	*	*	*	*	*	*
!	!	!	!LO:LB:g=original	!	!	!	!	!	!LO:LB:g=original	!	!	!	!	!	!	!	!	!	!	!
=93	=93	=93	=93	=93	=93	=93	=93	=93	=93	=93	=93	=93	=93	=93	=93	=93	=93	=93	=93	=93
4F#X'	.	.	(>4F#X	Pa-	4f#X	Pa-	4f#X	Pa-	4f#X	.	4ff#X	.	1r	.	1r	.	4f#X	.	4ff#X	.
4D'	.	.	4D)	.	4d	.	4d	.	4d	.	4dd	.	.	.	.	.	4d	.	4dd	.
2G'	.	.	4G	-tris	4g	-tris	4g/	-tris	4g	.	4.gg	.	.	.	.	.	2g	.	2gg	.
.	.	.	4G	in	4g	in	4g/	in	4g	.	.	.	.	.	.	.	.	.	.	.
.	.	.	.	.	.	.	.	.	.	.	8gg	.	.	.	.	.	.	.	.	.
!	!	!	!	!	!LO:LB:g=original	!	!	!	!	!	!	!	!	!	!	!	!	!	!	!
=94	=94	=94	=94	=94	=94	=94	=94	=94	=94	=94	=94	=94	=94	=94	=94	=94	=94	=94	=94	=94
8c'L	.	.	8cL	Glo-	4cc	Glo-	4cc	Glo-	8ccL	.	8cccL	.	1r	.	1r	.	8cc	.	8ccc	.
8d'	.	.	8dJ	.	.	.	.	.	8dd	.	8ddd	.	.	.	.	.	8r	.	8r	.
8c'	.	.	8c	-ri-	8b	-ri-	8b	-ri-	8cc	.	8ccc	.	.	.	.	.	8ccL	.	8cccL	.
8B'J	.	.	8B	-a	8b	-a	8b	-a	8bJ	.	8bbJ	.	.	.	.	.	8bJ	.	8bbJ	.
!	!	!	!	!	!	!	!	!	!	!	!LO:LB:g=original	!	!	!	!	!	!	!	!	!
8A'L	.	.	(>8AL	De-	4a	De-	4a	De-	8aL	.	8aaL	.	.	.	.	.	8a	.	8aa	.
8B'	.	.	8BJ)	.	.	.	.	.	8b	.	8bb	.	.	.	.	.	8r	.	8r	.
8A'	.	.	(>8AL	-i	4f	-i	4g	-i	8a	.	8aa	.	.	.	.	.	8aL	.	8aaL	.
8G'J	.	.	8GJ)	.	.	.	.	.	8gJ	.	8ggJ	.	.	.	.	.	8gJ	.	8ggJ	.
!	!	!	!	!	!	!	!	!	!	!	!	!	!	!	!	!	!	!	!LO:LB:g=original	!
=95	=95	=95	=95	=95	=95	=95	=95	=95	=95	=95	=95	=95	=95	=95	=95	=95	=95	=95	=95	=95
8F#X'L	.	.	(>8F#XL	Pa-	4f#X	Pa-	(>4f#X	Pa-	8f#XL	.	8ff#XL	.	1r	.	1r	.	8f#X	.	8ff#X	.
8G'	.	.	8G	.	.	.	.	.	8g	.	8gg	.	.	.	.	.	8r	.	8r	.
8F#'	.	.	8F#	.	4d	.	4d)	.	8f#	.	8ff#	.	.	.	.	.	8f#L	.	8ff#L	.
8D'J	.	.	8DJ)	.	.	.	.	.	8dJ	.	8ddJ	.	.	.	.	.	8dJ	.	8ddJ	.
2G'	.	.	4G	-tris	4g	-tris	4g/	-tris	4g	.	4.gg	p	.	.	.	.	2g	.	2gg	.
.	.	.	4r	.	4r	.	4r	.	4g	.	.	.	.	.	.	.	.	.	.	.
.	.	.	.	.	.	.	.	.	.	.	8gg	.	.	.	.	.	.	.	.	.
=96	=96	=96	=96	=96	=96	=96	=96	=96	=96	=96	=96	=96	=96	=96	=96	=96	=96	=96	=96	=96
!LO:TX:a:t=Solo	!	!	!	!	!	!	!	!	!	!	!	!	!	!	!	!	!	!	!	!
*tremolo	*	*	*	*	*	*	*	*	*	*	*	*	*	*	*	*	*	*	*	*
8cL	.	p	1r	.	1r	.	1r	.	8ccL	p	(>8eeL	.	8cc	.	8ee	.	1r	.	1r	.
8c	.	.	.	.	.	.	.	.	8g	.	8ffn	.	8r	.	8r	.	.	.	.	.
8c	.	.	.	.	.	.	.	.	8cc	.	8ee	.	8ccL\	.	8eeL	.	.	.	.	.
8cJ	.	.	.	.	.	.	.	.	8gJ	.	8ccJ)	.	8gJ	.	8ccJ	.	.	.	.	.
8cL	.	.	.	.	.	.	.	.	8ddL\	.	(>8ffL	.	8dd	.	8ff	.	.	.	.	.
8c	.	.	.	.	.	.	.	.	8gJ/	.	8gg	.	8r	.	8r	.	.	.	.	.
8c	.	.	.	.	.	.	.	.	8ddL\	.	8ff	.	8ddL\	.	8ffL	.	.	.	.	.
8cJ	.	.	.	.	.	.	.	.	8gJ/	.	8ddJ)	.	8gJ/	.	8ddJ	.	.	.	.	.
=97	=97	=97	=97	=97	=97	=97	=97	=97	=97	=97	=97	=97	=97	=97	=97	=97	=97	=97	=97	=97
8cL	.	.	2c	A-	2ee	A-	2gg	A-	2ee	.	(>2gg	.	2ee	.	2gg	.	1r	.	1r	.
8c	.	.	.	.	.	.	.	.	.	.	.	.	.	.	.	.	.	.	.	.
8c	.	.	.	.	.	.	.	.	.	.	.	.	.	.	.	.	.	.	.	.
8cJ	.	.	.	.	.	.	.	.	.	.	.	.	.	.	.	.	.	.	.	.
8cL	.	.	2C	-men	2cc	-men	4ee	-men	4e 4cc\	.	4ee)	.	4cc	.	4ee	.	.	.	.	.
8c	.	.	.	.	.	.	.	.	.	.	.	.	.	.	.	.	.	.	.	.
8c	.	.	.	.	.	.	4r	.	4e 4cc\	.	4ee`	.	4cc	.	4ee	.	.	.	.	.
8cJ	.	.	.	.	.	.	.	.	.	.	.	.	.	.	.	.	.	.	.	.
!LO:LB:g=original	!	!	!LO:LB:g=original	!	!	!	!LO:LB:g=original	!	!LO:LB:g=original	!	!	!	!	!	!	!	!	!	!	!
=98	=98	=98	=98	=98	=98	=98	=98	=98	=98	=98	=98	=98	=98	=98	=98	=98	=98	=98	=98	=98
8cL	.	.	1r	.	1r	.	1r	.	4G 4g	.	(>8ffL	.	4dd	.	4ff	.	1r	.	1r	.
8c	.	.	.	.	.	.	.	.	.	.	8gg	.	.	.	.	.	.	.	.	.
8c	.	.	.	.	.	.	.	.	4G 4g	.	8ff	.	8ddL	.	8ffL	.	.	.	.	.
8cJ	.	.	.	.	.	.	.	.	.	.	8eeJ)	.	8ccJ	.	8eeJ	.	.	.	.	.
8cL	.	.	.	.	.	.	.	.	4G 4f	.	(>8ddL	.	4g	.	4dd	.	.	.	.	.
8c	.	.	.	.	.	.	.	.	.	.	8ee	.	.	.	.	.	.	.	.	.
8c	.	.	.	.	.	.	.	.	4G 4e	.	8dd	.	8gL	.	8ddL	.	.	.	.	.
8cJ	.	.	.	.	.	.	.	.	.	.	8ccJ)	.	8eJ	.	8ccJ	.	.	.	.	.
!	!	!	!	!	!	!	!	!	!	!	!	!	!	!	!	!	!LO:LB:g=original	!	!	!
=99	=99	=99	=99	=99	=99	=99	=99	=99	=99	=99	=99	=99	=99	=99	=99	=99	=99	=99	=99	=99
8cL	.	.	2c	A-	2g	A-	2ee	A-	2G 2g	.	2ee	.	2g	.	2ee	.	2r	.	2r	.
8c	.	.	.	.	.	.	.	.	.	.	.	.	.	.	.	.	.	.	.	.
8c	.	.	.	.	.	.	.	.	.	.	.	.	.	.	.	.	.	.	.	.
8cJ	.	.	.	.	.	.	.	.	.	.	.	.	.	.	.	.	.	.	.	.
8cL	.	.	2C	-men	2e	-men	4cc	-men	4G 4e	.	4cc	.	4e	.	4cc	.	4r	.	4r	.
8c	.	.	.	.	.	.	.	.	.	.	.	.	.	.	.	.	.	.	.	.
8c	.	.	.	.	.	.	4r	.	8eL	.	8ccL	.	4r	.	4r	.	8cL	p	8ccL	p
8cJ	.	.	.	.	.	.	.	.	8gJ	.	8ddJ	.	.	.	.	.	8dJ	.	8ddJ	.
!	!	!	!	!	!	!	!	!	!	!	!LO:LB:g=original	!	!LO:LB:g=original	!	!	!	!	!	!	!
=100	=100	=100	=100	=100	=100	=100	=100	=100	=100	=100	=100	=100	=100	=100	=100	=100	=100	=100	=100	=100
8CL	.	.	1r	.	1r	.	1r	.	8G 8g	.	(>8eeL	.	1r	.	1r	.	8e	.	8ee	.
8C	.	.	.	.	.	.	.	.	4G 4g	.	8ff	.	.	.	.	.	8r	.	8r	.
8C	.	.	.	.	.	.	.	.	.	.	8ee	.	.	.	.	.	8eL	.	8eeL	.
8CJ	.	.	.	.	.	.	.	.	4G 4g	.	8ccJ)	.	.	.	.	.	8cJ	.	8ccJ	.
8CL	.	.	.	.	.	.	.	.	.	.	(>8ffL	.	.	.	.	.	8f	.	8ff	.
8C	.	.	.	.	.	.	.	.	4G 4g	.	8gg	.	.	.	.	.	8r	.	8r	.
8C	.	.	.	.	.	.	.	.	.	.	8ff	.	.	.	.	.	8fL	.	8ffL	.
8CJ	.	.	.	.	.	.	.	.	8G 8g	.	8ddJ)	.	.	.	.	.	8dJ	.	8ddJ	.
!	!	!	!	!	!LO:LB:g=original	!	!	!	!	!	!	!	!	!	!	!	!	!	!	!
=101	=101	=101	=101	=101	=101	=101	=101	=101	=101	=101	=101	=101	=101	=101	=101	=101	=101	=101	=101	=101
8CL	.	.	2c	A-	2ee	a-	2gg	a-	2ee	.	2gg	.	1r	.	1r	.	2g	.	2gg	.
8C	.	.	.	.	.	.	.	.	.	.	.	.	.	.	.	.	.	.	.	.
8C	.	.	.	.	.	.	.	.	.	.	.	.	.	.	.	.	.	.	.	.
8CJ	.	.	.	.	.	.	.	.	.	.	.	.	.	.	.	.	.	.	.	.
8CL	.	.	2C	-men	4cc	-men	4ee	-men	4g 4cc\	.	4ee	.	.	.	.	.	4e	.	4ee	.
8C	.	.	.	.	.	.	.	.	.	.	.	.	.	.	.	.	.	.	.	.
8C	.	.	.	.	4r	.	4r	.	4g 4cc\	.	4ee	.	.	.	.	.	4e	.	4ee	.
8CJ	.	.	.	.	.	.	.	.	.	.	.	.	.	.	.	.	.	.	.	.
=102	=102	=102	=102	=102	=102	=102	=102	=102	=102	=102	=102	=102	=102	=102	=102	=102	=102	=102	=102	=102
8GL	7	.	1r	.	1r	.	1r	.	4G 4g	.	8ffL	.	1r	.	1r	.	8f	.	8ff	.
8G	.	.	.	.	.	.	.	.	.	.	8gg	.	.	.	.	.	8r	.	8r	.
8G	.	.	.	.	.	.	.	.	4G 4g	.	8ff	.	.	.	.	.	8fL	.	8ffL	.
8GJ	.	.	.	.	.	.	.	.	.	.	8eeJ	.	.	.	.	.	8eJ	.	8eeJ	.
!	!	!	!	!	!	!	!	!	!	!	!	!	!	!	!	!	!	!	!LO:LB:g=original	!
8GL	5	.	.	.	.	.	.	.	4G 4f	.	8ddL	.	.	.	.	.	8d	.	8dd	.
8G	.	.	.	.	.	.	.	.	.	.	8ee	.	.	.	.	.	8r	.	8r	.
8G	.	.	.	.	.	.	.	.	4G 4e	.	8dd	.	.	.	.	.	8dL	.	8ddL	.
8GJ	.	.	.	.	.	.	.	.	.	.	8ccJ	.	.	.	.	.	8cJ	.	8ccJ	.
!	!	!	!	!	!	!	!	!	!	!	!	!	!	!	!LO:LB:g=original	!	!LO:LB:g=original	!	!	!
=103	=103	=103	=103	=103	=103	=103	=103	=103	=103	=103	=103	=103	=103	=103	=103	=103	=103	=103	=103	=103
8CL	.	.	2c	A-	2g	A-	2ee	a-	2g	.	2ee	.	2r	.	2r	.	2e	.	2ee	.
8C	.	.	.	.	.	.	.	.	.	.	.	.	.	.	.	.	.	.	.	.
8C	.	.	.	.	.	.	.	.	.	.	.	.	.	.	.	.	.	.	.	.
8CJ	.	.	.	.	.	.	.	.	.	.	.	.	.	.	.	.	.	.	.	.
8CL	.	.	2C	-men	4e	-men	4cc	.	4e	.	4cc	.	4r	.	4r	.	4c	.	4cc	.
8C	.	.	.	.	.	.	.	.	.	.	.	.	.	.	.	.	.	.	.	.
8C	.	.	.	.	4ee	a-	4gg	.	4cc 4ee	.	4gg	.	4g	f	4g	f	4g	.	4gg	.
8CJ	.	.	.	.	.	.	.	.	.	.	.	.	.	.	.	.	.	.	.	.
=104	=104	=104	=104	=104	=104	=104	=104	=104	=104	=104	=104	=104	=104	=104	=104	=104	=104	=104	=104	=104
!LO:TX:a:t=Tutti	!	!	!	!	!	!	!	!	!	!	!	!	!	!	!	!	!	!	!	!
8CL	.	ff	4r	.	2cc	-men	4ee	-men	4cc 4ee	ff	8cccL	ff	4c	.	4cc/	.	4ee	???	4ccc	???
8EJ	.	.	.	.	.	.	.	.	.	.	8gg	.	.	.	.	.	.	.	.	.
4G	.	.	4G	a-	.	.	4r	.	4dd 4ff	.	8bb	.	4g	.	4g	.	4dd	.	4bb	.
.	.	.	.	.	.	.	.	.	.	.	8ggJ	.	.	.	.	.	.	.	.	.
8CL	.	.	4c	-men	4r	.	4r	.	4cc 4ee	.	8cccL	.	4c	.	8ccL	.	4ee	.	4ccc	.
8EJ	.	.	.	.	.	.	.	.	.	.	8ddd	.	.	.	8ddJ	.	.	.	.	.
4G	.	.	4r	.	4b	a-	4dd	a-	4dd 4ff	.	8bb	.	4g	.	4g	.	4dd	.	4bb	.
.	.	.	.	.	.	.	.	.	.	.	8ggJ	.	.	.	.	.	.	.	.	.
!LO:LB:g=original	!	!	!	!	!	!	!	!	!LO:LB:g=original	!	!	!	!	!	!	!	!	!	!	!
=105	=105	=105	=105	=105	=105	=105	=105	=105	=105	=105	=105	=105	=105	=105	=105	=105	=105	=105	=105	=105
4C\	.	.	4r	.	2cc	-men	4ee	-men	8ccL 8ee	.	8cccL	.	4c	.	4cc	.	4ee	.	4ccc	.
.	.	.	.	.	.	.	.	.	8cc 8ee	.	8gg	.	.	.	.	.	.	.	.	.
4G	.	.	4G	a-	.	.	4r	.	8dd 8ff	.	8bb	.	4g	.	4g	.	4dd	.	4bb	.
.	.	.	.	.	.	.	.	.	8ddJ 8ff	.	8ggJ	.	.	.	.	.	.	.	.	.
4C\	.	.	4c	-men	4r	.	4r	.	8ccL 8ee	.	8cccL	.	4c	.	8ccL	.	4ee	.	4ccc	.
.	.	.	.	.	.	.	.	.	8cc 8ee	.	8ddd	.	.	.	8ddJ	.	.	.	.	.
4G	.	.	4r	.	4b	a-	4dd	a-	8dd 8ff	.	8bb	.	4g	.	4g	.	4dd	.	4bb	.
.	.	.	.	.	.	.	.	.	8ddJ 8ff	.	8ggJ	.	.	.	.	.	.	.	.	.
!	!	!	!LO:LB:g=original	!	!	!	!	!	!	!	!LO:LB:g=original	!	!	!	!	!	!	!	!	!
=106	=106	=106	=106	=106	=106	=106	=106	=106	=106	=106	=106	=106	=106	=106	=106	=106	=106	=106	=106	=106
8CL	.	.	4C	a-	2cc	-men	2ee	-men	2cc 2ee	.	2ccc	.	4e	.	4cc	.	4ee	.	4ccc	.
8E	.	.	.	.	.	.	.	.	.	.	.	.	.	.	.	.	.	.	.	.
8G	.	.	4C	-men	.	.	.	.	.	.	.	.	4cc	.	4ee	.	4r	.	4r	.
8cJ	.	.	.	.	.	.	.	.	.	.	.	.	.	.	.	.	.	.	.	.
8GL	.	.	4E	A-	2g	A-	2ee	A-	4cc 4ee	.	4ccc	.	4g	.	4ee	.	4e	.	4cc	.
8c	.	.	.	.	.	.	.	.	.	.	.	.	.	.	.	.	.	.	.	.
8G	.	.	4G	.	.	.	.	.	4cc 4ee	.	4ccc	.	4e	.	4cc	.	4e	.	4cc	.
8EJ	.	.	.	.	.	.	.	.	.	.	.	.	.	.	.	.	.	.	.	.
=107	=107	=107	=107	=107	=107	=107	=107	=107	=107	=107	=107	=107	=107	=107	=107	=107	=107	=107	=107	=107
2C	.	.	2c	-men	2g	-men	2ee	-men.	2cc 2ee	.	2ccc	.	2c	.	2cc	.	2e	.	2cc	.
2r	.	.	2r	.	2r	.	2r	.	2r	.	2r	.	2r	.	2r	.	2r	.	2r	.
==	==	==	==	==	==	==	==	==	==	==	==	==	==	==	==	==	==	==	==	==
*-	*-	*-	*-	*-	*-	*-	*-	*-	*-	*-	*-	*-	*-	*-	*-	*-	*-	*-	*-	*-
!!!system-decoration: s1,s2,s3,s4,s5,s6,s7,s8,s9,s10
!!!RDF**kern: > = above
!!!RDF**kern: < = below
